res/luts/Cool.cube
LUT_3D_SIZE 16
0.000000 0.000000 0.000000
0.048578 0.000000 0.000000
0.096772 0.000000 0.000000
0.144588 0.000000 0.000000
0.192013 0.000000 0.000000
0.239044 0.000000 0.000000
0.285699 0.000000 0.000000
0.332531 0.000000 0.000000
0.379510 0.000000 0.000000
0.426598 0.000000 0.000000
0.473623 0.000000 0.000000
0.520286 0.000000 0.000000
0.566280 0.000000 0.000000
0.610814 0.000000 0.000000
0.652746 0.000000 0.000000
0.997937 0.000000 0.000000
0.000000 0.064225 0.000000
0.048578 0.064225 0.000000
0.096772 0.064225 0.000000
0.144588 0.064225 0.000000
0.192013 0.064225 0.000000
0.239044 0.064225 0.000000
0.285699 0.064225 0.000000
0.332531 0.064225 0.000000
0.379510 0.064225 0.000000
0.426598 0.064225 0.000000
0.473623 0.064225 0.000000
0.520286 0.064225 0.000000
0.566280 0.064225 0.000000
0.610814 0.064225 0.000000
0.652746 0.064225 0.000000
0.997937 0.064225 0.000000
0.000000 0.129465 0.000000
0.048578 0.129465 0.000000
0.096772 0.129465 0.000000
0.144588 0.129465 0.000000
0.192013 0.129465 0.000000
0.239044 0.129465 0.000000
0.285699 0.129465 0.000000
0.332531 0.129465 0.000000
0.379510 0.129465 0.000000
0.426598 0.129465 0.000000
0.473623 0.129465 0.000000
0.520286 0.129465 0.000000
0.566280 0.129465 0.000000
0.610814 0.129465 0.000000
0.652746 0.129465 0.000000
0.997937 0.129465 0.000000
0.000000 0.195702 0.000000
0.048578 0.195702 0.000000
0.096772 0.195702 0.000000
0.144588 0.195702 0.000000
0.192013 0.195702 0.000000
0.239044 0.195702 0.000000
0.285699 0.195702 0.000000
0.332531 0.195702 0.000000
0.379510 0.195702 0.000000
0.426598 0.195702 0.000000
0.473623 0.195702 0.000000
0.520286 0.195702 0.000000
0.566280 0.195702 0.000000
0.610814 0.195702 0.000000
0.652746 0.195702 0.000000
0.997937 0.195702 0.000000
0.000000 0.262639 0.000000
0.048578 0.262639 0.000000
0.096772 0.262639 0.000000
0.144588 0.262639 0.000000
0.192013 0.262639 0.000000
0.239044 0.262639 0.000000
0.285699 0.262639 0.000000
0.332531 0.262639 0.000000
0.379510 0.262639 0.000000
0.426598 0.262639 0.000000
0.473623 0.262639 0.000000
0.520286 0.262639 0.000000
0.566280 0.262639 0.000000
0.610814 0.262639 0.000000
0.652746 0.262639 0.000000
0.997937 0.262639 0.000000
0.000000 0.329342 0.000000
0.048578 0.329342 0.000000
0.096772 0.329342 0.000000
0.144588 0.329342 0.000000
0.192013 0.329342 0.000000
0.239044 0.329342 0.000000
0.285699 0.329342 0.000000
0.332531 0.329342 0.000000
0.379510 0.329342 0.000000
0.426598 0.329342 0.000000
0.473623 0.329342 0.000000
0.520286 0.329342 0.000000
0.566280 0.329342 0.000000
0.610814 0.329342 0.000000
0.652746 0.329342 0.000000
0.997937 0.329342 0.000000
0.000000 0.395952 0.000000
0.048578 0.395952 0.000000
0.096772 0.395952 0.000000
0.144588 0.395952 0.000000
0.192013 0.395952 0.000000
0.239044 0.395952 0.000000
0.285699 0.395952 0.000000
0.332531 0.395952 0.000000
0.379510 0.395952 0.000000
0.426598 0.395952 0.000000
0.473623 0.395952 0.000000
0.520286 0.395952 0.000000
0.566280 0.395952 0.000000
0.610814 0.395952 0.000000
0.652746 0.395952 0.000000
0.997937 0.395952 0.000000
0.000000 0.463110 0.000000
0.048578 0.463110 0.000000
0.096772 0.463110 0.000000
0.144588 0.463110 0.000000
0.192013 0.463110 0.000000
0.239044 0.463110 0.000000
0.285699 0.463110 0.000000
0.332531 0.463110 0.000000
0.379510 0.463110 0.000000
0.426598 0.463110 0.000000
0.473623 0.463110 0.000000
0.520286 0.463110 0.000000
0.566280 0.463110 0.000000
0.610814 0.463110 0.000000
0.652746 0.463110 0.000000
0.997937 0.463110 0.000000
0.000000 0.531156 0.000000
0.048578 0.531156 0.000000
0.096772 0.531156 0.000000
0.144588 0.531156 0.000000
0.192013 0.531156 0.000000
0.239044 0.531156 0.000000
0.285699 0.531156 0.000000
0.332531 0.531156 0.000000
0.379510 0.531156 0.000000
0.426598 0.531156 0.000000
0.473623 0.531156 0.000000
0.520286 0.531156 0.000000
0.566280 0.531156 0.000000
0.610814 0.531156 0.000000
0.652746 0.531156 0.000000
0.997937 0.531156 0.000000
0.000000 0.600640 0.000000
0.048578 0.600640 0.000000
0.096772 0.600640 0.000000
0.144588 0.600640 0.000000
0.192013 0.600640 0.000000
0.239044 0.600640 0.000000
0.285699 0.600640 0.000000
0.332531 0.600640 0.000000
0.379510 0.600640 0.000000
0.426598 0.600640 0.000000
0.473623 0.600640 0.000000
0.520286 0.600640 0.000000
0.566280 0.600640 0.000000
0.610814 0.600640 0.000000
0.652746 0.600640 0.000000
0.997937 0.600640 0.000000
0.000000 0.672116 0.000000
0.048578 0.672116 0.000000
0.096772 0.672116 0.000000
0.144588 0.672116 0.000000
0.192013 0.672116 0.000000
0.239044 0.672116 0.000000
0.285699 0.672116 0.000000
0.332531 0.672116 0.000000
0.379510 0.672116 0.000000
0.426598 0.672116 0.000000
0.473623 0.672116 0.000000
0.520286 0.672116 0.000000
0.566280 0.672116 0.000000
0.610814 0.672116 0.000000
0.652746 0.672116 0.000000
0.997937 0.672116 0.000000
0.000000 0.745814 0.000000
0.048578 0.745814 0.000000
0.096772 0.745814 0.000000
0.144588 0.745814 0.000000
0.192013 0.745814 0.000000
0.239044 0.745814 0.000000
0.285699 0.745814 0.000000
0.332531 0.745814 0.000000
0.379510 0.745814 0.000000
0.426598 0.745814 0.000000
0.473623 0.745814 0.000000
0.520286 0.745814 0.000000
0.566280 0.745814 0.000000
0.610814 0.745814 0.000000
0.652746 0.745814 0.000000
0.997937 0.745814 0.000000
0.000000 0.822253 0.000000
0.048578 0.822253 0.000000
0.096772 0.822253 0.000000
0.144588 0.822253 0.000000
0.192013 0.822253 0.000000
0.239044 0.822253 0.000000
0.285699 0.822253 0.000000
0.332531 0.822253 0.000000
0.379510 0.822253 0.000000
0.426598 0.822253 0.000000
0.473623 0.822253 0.000000
0.520286 0.822253 0.000000
0.566280 0.822253 0.000000
0.610814 0.822253 0.000000
0.652746 0.822253 0.000000
0.997937 0.822253 0.000000
0.000000 0.901231 0.000000
0.048578 0.901231 0.000000
0.096772 0.901231 0.000000
0.144588 0.901231 0.000000
0.192013 0.901231 0.000000
0.239044 0.901231 0.000000
0.285699 0.901231 0.000000
0.332531 0.901231 0.000000
0.379510 0.901231 0.000000
0.426598 0.901231 0.000000
0.473623 0.901231 0.000000
0.520286 0.901231 0.000000
0.566280 0.901231 0.000000
0.610814 0.901231 0.000000
0.652746 0.901231 0.000000
0.997937 0.901231 0.000000
0.000000 0.966233 0.000000
0.048578 0.966233 0.000000
0.096772 0.966233 0.000000
0.144588 0.966233 0.000000
0.192013 0.966233 0.000000
0.239044 0.966233 0.000000
0.285699 0.966233 0.000000
0.332531 0.966233 0.000000
0.379510 0.966233 0.000000
0.426598 0.966233 0.000000
0.473623 0.966233 0.000000
0.520286 0.966233 0.000000
0.566280 0.966233 0.000000
0.610814 0.966233 0.000000
0.652746 0.966233 0.000000
0.997937 0.966233 0.000000
0.000000 0.999854 0.000000
0.048578 0.999854 0.000000
0.096772 0.999854 0.000000
0.144588 0.999854 0.000000
0.192013 0.999854 0.000000
0.239044 0.999854 0.000000
0.285699 0.999854 0.000000
0.332531 0.999854 0.000000
0.379510 0.999854 0.000000
0.426598 0.999854 0.000000
0.473623 0.999854 0.000000
0.520286 0.999854 0.000000
0.566280 0.999854 0.000000
0.610814 0.999854 0.000000
0.652746 0.999854 0.000000
0.997937 0.999854 0.000000
0.000000 0.000000 0.111570
0.048578 0.000000 0.111570
0.096772 0.000000 0.111570
0.144588 0.000000 0.111570
0.192013 0.000000 0.111570
0.239044 0.000000 0.111570
0.285699 0.000000 0.111570
0.332531 0.000000 0.111570
0.379510 0.000000 0.111570
0.426598 0.000000 0.111570
0.473623 0.000000 0.111570
0.520286 0.000000 0.111570
0.566280 0.000000 0.111570
0.610814 0.000000 0.111570
0.652746 0.000000 0.111570
0.997937 0.000000 0.111570
0.000000 0.064225 0.111570
0.048578 0.064225 0.111570
0.096772 0.064225 0.111570
0.144588 0.064225 0.111570
0.192013 0.064225 0.111570
0.239044 0.064225 0.111570
0.285699 0.064225 0.111570
0.332531 0.064225 0.111570
0.379510 0.064225 0.111570
0.426598 0.064225 0.111570
0.473623 0.064225 0.111570
0.520286 0.064225 0.111570
0.566280 0.064225 0.111570
0.610814 0.064225 0.111570
0.652746 0.064225 0.111570
0.997937 0.064225 0.111570
0.000000 0.129465 0.111570
0.048578 0.129465 0.111570
0.096772 0.129465 0.111570
0.144588 0.129465 0.111570
0.192013 0.129465 0.111570
0.239044 0.129465 0.111570
0.285699 0.129465 0.111570
0.332531 0.129465 0.111570
0.379510 0.129465 0.111570
0.426598 0.129465 0.111570
0.473623 0.129465 0.111570
0.520286 0.129465 0.111570
0.566280 0.129465 0.111570
0.610814 0.129465 0.111570
0.652746 0.129465 0.111570
0.997937 0.129465 0.111570
0.000000 0.195702 0.111570
0.048578 0.195702 0.111570
0.096772 0.195702 0.111570
0.144588 0.195702 0.111570
0.192013 0.195702 0.111570
0.239044 0.195702 0.111570
0.285699 0.195702 0.111570
0.332531 0.195702 0.111570
0.379510 0.195702 0.111570
0.426598 0.195702 0.111570
0.473623 0.195702 0.111570
0.520286 0.195702 0.111570
0.566280 0.195702 0.111570
0.610814 0.195702 0.111570
0.652746 0.195702 0.111570
0.997937 0.195702 0.111570
0.000000 0.262639 0.111570
0.048578 0.262639 0.111570
0.096772 0.262639 0.111570
0.144588 0.262639 0.111570
0.192013 0.262639 0.111570
0.239044 0.262639 0.111570
0.285699 0.262639 0.111570
0.332531 0.262639 0.111570
0.379510 0.262639 0.111570
0.426598 0.262639 0.111570
0.473623 0.262639 0.111570
0.520286 0.262639 0.111570
0.566280 0.262639 0.111570
0.610814 0.262639 0.111570
0.652746 0.262639 0.111570
0.997937 0.262639 0.111570
0.000000 0.329342 0.111570
0.048578 0.329342 0.111570
0.096772 0.329342 0.111570
0.144588 0.329342 0.111570
0.192013 0.329342 0.111570
0.239044 0.329342 0.111570
0.285699 0.329342 0.111570
0.332531 0.329342 0.111570
0.379510 0.329342 0.111570
0.426598 0.329342 0.111570
0.473623 0.329342 0.111570
0.520286 0.329342 0.111570
0.566280 0.329342 0.111570
0.610814 0.329342 0.111570
0.652746 0.329342 0.111570
0.997937 0.329342 0.111570
0.000000 0.395952 0.111570
0.048578 0.395952 0.111570
0.096772 0.395952 0.111570
0.144588 0.395952 0.111570
0.192013 0.395952 0.111570
0.239044 0.395952 0.111570
0.285699 0.395952 0.111570
0.332531 0.395952 0.111570
0.379510 0.395952 0.111570
0.426598 0.395952 0.111570
0.473623 0.395952 0.111570
0.520286 0.395952 0.111570
0.566280 0.395952 0.111570
0.610814 0.395952 0.111570
0.652746 0.395952 0.111570
0.997937 0.395952 0.111570
0.000000 0.463110 0.111570
0.048578 0.463110 0.111570
0.096772 0.463110 0.111570
0.144588 0.463110 0.111570
0.192013 0.463110 0.111570
0.239044 0.463110 0.111570
0.285699 0.463110 0.111570
0.332531 0.463110 0.111570
0.379510 0.463110 0.111570
0.426598 0.463110 0.111570
0.473623 0.463110 0.111570
0.520286 0.463110 0.111570
0.566280 0.463110 0.111570
0.610814 0.463110 0.111570
0.652746 0.463110 0.111570
0.997937 0.463110 0.111570
0.000000 0.531156 0.111570
0.048578 0.531156 0.111570
0.096772 0.531156 0.111570
0.144588 0.531156 0.111570
0.192013 0.531156 0.111570
0.239044 0.531156 0.111570
0.285699 0.531156 0.111570
0.332531 0.531156 0.111570
0.379510 0.531156 0.111570
0.426598 0.531156 0.111570
0.473623 0.531156 0.111570
0.520286 0.531156 0.111570
0.566280 0.531156 0.111570
0.610814 0.531156 0.111570
0.652746 0.531156 0.111570
0.997937 0.531156 0.111570
0.000000 0.600640 0.111570
0.048578 0.600640 0.111570
0.096772 0.600640 0.111570
0.144588 0.600640 0.111570
0.192013 0.600640 0.111570
0.239044 0.600640 0.111570
0.285699 0.600640 0.111570
0.332531 0.600640 0.111570
0.379510 0.600640 0.111570
0.426598 0.600640 0.111570
0.473623 0.600640 0.111570
0.520286 0.600640 0.111570
0.566280 0.600640 0.111570
0.610814 0.600640 0.111570
0.652746 0.600640 0.111570
0.997937 0.600640 0.111570
0.000000 0.672116 0.111570
0.048578 0.672116 0.111570
0.096772 0.672116 0.111570
0.144588 0.672116 0.111570
0.192013 0.672116 0.111570
0.239044 0.672116 0.111570
0.285699 0.672116 0.111570
0.332531 0.672116 0.111570
0.379510 0.672116 0.111570
0.426598 0.672116 0.111570
0.473623 0.672116 0.111570
0.520286 0.672116 0.111570
0.566280 0.672116 0.111570
0.610814 0.672116 0.111570
0.652746 0.672116 0.111570
0.997937 0.672116 0.111570
0.000000 0.745814 0.111570
0.048578 0.745814 0.111570
0.096772 0.745814 0.111570
0.144588 0.745814 0.111570
0.192013 0.745814 0.111570
0.239044 0.745814 0.111570
0.285699 0.745814 0.111570
0.332531 0.745814 0.111570
0.379510 0.745814 0.111570
0.426598 0.745814 0.111570
0.473623 0.745814 0.111570
0.520286 0.745814 0.111570
0.566280 0.745814 0.111570
0.610814 0.745814 0.111570
0.652746 0.745814 0.111570
0.997937 0.745814 0.111570
0.000000 0.822253 0.111570
0.048578 0.822253 0.111570
0.096772 0.822253 0.111570
0.144588 0.822253 0.111570
0.192013 0.822253 0.111570
0.239044 0.822253 0.111570
0.285699 0.822253 0.111570
0.332531 0.822253 0.111570
0.379510 0.822253 0.111570
0.426598 0.822253 0.111570
0.473623 0.822253 0.111570
0.520286 0.822253 0.111570
0.566280 0.822253 0.111570
0.610814 0.822253 0.111570
0.652746 0.822253 0.111570
0.997937 0.822253 0.111570
0.000000 0.901231 0.111570
0.048578 0.901231 0.111570
0.096772 0.901231 0.111570
0.144588 0.901231 0.111570
0.192013 0.901231 0.111570
0.239044 0.901231 0.111570
0.285699 0.901231 0.111570
0.332531 0.901231 0.111570
0.379510 0.901231 0.111570
0.426598 0.901231 0.111570
0.473623 0.901231 0.111570
0.520286 0.901231 0.111570
0.566280 0.901231 0.111570
0.610814 0.901231 0.111570
0.652746 0.901231 0.111570
0.997937 0.901231 0.111570
0.000000 0.966233 0.111570
0.048578 0.966233 0.111570
0.096772 0.966233 0.111570
0.144588 0.966233 0.111570
0.192013 0.966233 0.111570
0.239044 0.966233 0.111570
0.285699 0.966233 0.111570
0.332531 0.966233 0.111570
0.379510 0.966233 0.111570
0.426598 0.966233 0.111570
0.473623 0.966233 0.111570
0.520286 0.966233 0.111570
0.566280 0.966233 0.111570
0.610814 0.966233 0.111570
0.652746 0.966233 0.111570
0.997937 0.966233 0.111570
0.000000 0.999854 0.111570
0.048578 0.999854 0.111570
0.096772 0.999854 0.111570
0.144588 0.999854 0.111570
0.192013 0.999854 0.111570
0.239044 0.999854 0.111570
0.285699 0.999854 0.111570
0.332531 0.999854 0.111570
0.379510 0.999854 0.111570
0.426598 0.999854 0.111570
0.473623 0.999854 0.111570
0.520286 0.999854 0.111570
0.566280 0.999854 0.111570
0.610814 0.999854 0.111570
0.652746 0.999854 0.111570
0.997937 0.999854 0.111570
0.000000 0.000000 0.218759
0.048578 0.000000 0.218759
0.096772 0.000000 0.218759
0.144588 0.000000 0.218759
0.192013 0.000000 0.218759
0.239044 0.000000 0.218759
0.285699 0.000000 0.218759
0.332531 0.000000 0.218759
0.379510 0.000000 0.218759
0.426598 0.000000 0.218759
0.473623 0.000000 0.218759
0.520286 0.000000 0.218759
0.566280 0.000000 0.218759
0.610814 0.000000 0.218759
0.652746 0.000000 0.218759
0.997937 0.000000 0.218759
0.000000 0.064225 0.218759
0.048578 0.064225 0.218759
0.096772 0.064225 0.218759
0.144588 0.064225 0.218759
0.192013 0.064225 0.218759
0.239044 0.064225 0.218759
0.285699 0.064225 0.218759
0.332531 0.064225 0.218759
0.379510 0.064225 0.218759
0.426598 0.064225 0.218759
0.473623 0.064225 0.218759
0.520286 0.064225 0.218759
0.566280 0.064225 0.218759
0.610814 0.064225 0.218759
0.652746 0.064225 0.218759
0.997937 0.064225 0.218759
0.000000 0.129465 0.218759
0.048578 0.129465 0.218759
0.096772 0.129465 0.218759
0.144588 0.129465 0.218759
0.192013 0.129465 0.218759
0.239044 0.129465 0.218759
0.285699 0.129465 0.218759
0.332531 0.129465 0.218759
0.379510 0.129465 0.218759
0.426598 0.129465 0.218759
0.473623 0.129465 0.218759
0.520286 0.129465 0.218759
0.566280 0.129465 0.218759
0.610814 0.129465 0.218759
0.652746 0.129465 0.218759
0.997937 0.129465 0.218759
0.000000 0.195702 0.218759
0.048578 0.195702 0.218759
0.096772 0.195702 0.218759
0.144588 0.195702 0.218759
0.192013 0.195702 0.218759
0.239044 0.195702 0.218759
0.285699 0.195702 0.218759
0.332531 0.195702 0.218759
0.379510 0.195702 0.218759
0.426598 0.195702 0.218759
0.473623 0.195702 0.218759
0.520286 0.195702 0.218759
0.566280 0.195702 0.218759
0.610814 0.195702 0.218759
0.652746 0.195702 0.218759
0.997937 0.195702 0.218759
0.000000 0.262639 0.218759
0.048578 0.262639 0.218759
0.096772 0.262639 0.218759
0.144588 0.262639 0.218759
0.192013 0.262639 0.218759
0.239044 0.262639 0.218759
0.285699 0.262639 0.218759
0.332531 0.262639 0.218759
0.379510 0.262639 0.218759
0.426598 0.262639 0.218759
0.473623 0.262639 0.218759
0.520286 0.262639 0.218759
0.566280 0.262639 0.218759
0.610814 0.262639 0.218759
0.652746 0.262639 0.218759
0.997937 0.262639 0.218759
0.000000 0.329342 0.218759
0.048578 0.329342 0.218759
0.096772 0.329342 0.218759
0.144588 0.329342 0.218759
0.192013 0.329342 0.218759
0.239044 0.329342 0.218759
0.285699 0.329342 0.218759
0.332531 0.329342 0.218759
0.379510 0.329342 0.218759
0.426598 0.329342 0.218759
0.473623 0.329342 0.218759
0.520286 0.329342 0.218759
0.566280 0.329342 0.218759
0.610814 0.329342 0.218759
0.652746 0.329342 0.218759
0.997937 0.329342 0.218759
0.000000 0.395952 0.218759
0.048578 0.395952 0.218759
0.096772 0.395952 0.218759
0.144588 0.395952 0.218759
0.192013 0.395952 0.218759
0.239044 0.395952 0.218759
0.285699 0.395952 0.218759
0.332531 0.395952 0.218759
0.379510 0.395952 0.218759
0.426598 0.395952 0.218759
0.473623 0.395952 0.218759
0.520286 0.395952 0.218759
0.566280 0.395952 0.218759
0.610814 0.395952 0.218759
0.652746 0.395952 0.218759
0.997937 0.395952 0.218759
0.000000 0.463110 0.218759
0.048578 0.463110 0.218759
0.096772 0.463110 0.218759
0.144588 0.463110 0.218759
0.192013 0.463110 0.218759
0.239044 0.463110 0.218759
0.285699 0.463110 0.218759
0.332531 0.463110 0.218759
0.379510 0.463110 0.218759
0.426598 0.463110 0.218759
0.473623 0.463110 0.218759
0.520286 0.463110 0.218759
0.566280 0.463110 0.218759
0.610814 0.463110 0.218759
0.652746 0.463110 0.218759
0.997937 0.463110 0.218759
0.000000 0.531156 0.218759
0.048578 0.531156 0.218759
0.096772 0.531156 0.218759
0.144588 0.531156 0.218759
0.192013 0.531156 0.218759
0.239044 0.531156 0.218759
0.285699 0.531156 0.218759
0.332531 0.531156 0.218759
0.379510 0.531156 0.218759
0.426598 0.531156 0.218759
0.473623 0.531156 0.218759
0.520286 0.531156 0.218759
0.566280 0.531156 0.218759
0.610814 0.531156 0.218759
0.652746 0.531156 0.218759
0.997937 0.531156 0.218759
0.000000 0.600640 0.218759
0.048578 0.600640 0.218759
0.096772 0.600640 0.218759
0.144588 0.600640 0.218759
0.192013 0.600640 0.218759
0.239044 0.600640 0.218759
0.285699 0.600640 0.218759
0.332531 0.600640 0.218759
0.379510 0.600640 0.218759
0.426598 0.600640 0.218759
0.473623 0.600640 0.218759
0.520286 0.600640 0.218759
0.566280 0.600640 0.218759
0.610814 0.600640 0.218759
0.652746 0.600640 0.218759
0.997937 0.600640 0.218759
0.000000 0.672116 0.218759
0.048578 0.672116 0.218759
0.096772 0.672116 0.218759
0.144588 0.672116 0.218759
0.192013 0.672116 0.218759
0.239044 0.672116 0.218759
0.285699 0.672116 0.218759
0.332531 0.672116 0.218759
0.379510 0.672116 0.218759
0.426598 0.672116 0.218759
0.473623 0.672116 0.218759
0.520286 0.672116 0.218759
0.566280 0.672116 0.218759
0.610814 0.672116 0.218759
0.652746 0.672116 0.218759
0.997937 0.672116 0.218759
0.000000 0.745814 0.218759
0.048578 0.745814 0.218759
0.096772 0.745814 0.218759
0.144588 0.745814 0.218759
0.192013 0.745814 0.218759
0.239044 0.745814 0.218759
0.285699 0.745814 0.218759
0.332531 0.745814 0.218759
0.379510 0.745814 0.218759
0.426598 0.745814 0.218759
0.473623 0.745814 0.218759
0.520286 0.745814 0.218759
0.566280 0.745814 0.218759
0.610814 0.745814 0.218759
0.652746 0.745814 0.218759
0.997937 0.745814 0.218759
0.000000 0.822253 0.218759
0.048578 0.822253 0.218759
0.096772 0.822253 0.218759
0.144588 0.822253 0.218759
0.192013 0.822253 0.218759
0.239044 0.822253 0.218759
0.285699 0.822253 0.218759
0.332531 0.822253 0.218759
0.379510 0.822253 0.218759
0.426598 0.822253 0.218759
0.473623 0.822253 0.218759
0.520286 0.822253 0.218759
0.566280 0.822253 0.218759
0.610814 0.822253 0.218759
0.652746 0.822253 0.218759
0.997937 0.822253 0.218759
0.000000 0.901231 0.218759
0.048578 0.901231 0.218759
0.096772 0.901231 0.218759
0.144588 0.901231 0.218759
0.192013 0.901231 0.218759
0.239044 0.901231 0.218759
0.285699 0.901231 0.218759
0.332531 0.901231 0.218759
0.379510 0.901231 0.218759
0.426598 0.901231 0.218759
0.473623 0.901231 0.218759
0.520286 0.901231 0.218759
0.566280 0.901231 0.218759
0.610814 0.901231 0.218759
0.652746 0.901231 0.218759
0.997937 0.901231 0.218759
0.000000 0.966233 0.218759
0.048578 0.966233 0.218759
0.096772 0.966233 0.218759
0.144588 0.966233 0.218759
0.192013 0.966233 0.218759
0.239044 0.966233 0.218759
0.285699 0.966233 0.218759
0.332531 0.966233 0.218759
0.379510 0.966233 0.218759
0.426598 0.966233 0.218759
0.473623 0.966233 0.218759
0.520286 0.966233 0.218759
0.566280 0.966233 0.218759
0.610814 0.966233 0.218759
0.652746 0.966233 0.218759
0.997937 0.966233 0.218759
0.000000 0.999854 0.218759
0.048578 0.999854 0.218759
0.096772 0.999854 0.218759
0.144588 0.999854 0.218759
0.192013 0.999854 0.218759
0.239044 0.999854 0.218759
0.285699 0.999854 0.218759
0.332531 0.999854 0.218759
0.379510 0.999854 0.218759
0.426598 0.999854 0.218759
0.473623 0.999854 0.218759
0.520286 0.999854 0.218759
0.566280 0.999854 0.218759
0.610814 0.999854 0.218759
0.652746 0.999854 0.218759
0.997937 0.999854 0.218759
0.000000 0.000000 0.321389
0.048578 0.000000 0.321389
0.096772 0.000000 0.321389
0.144588 0.000000 0.321389
0.192013 0.000000 0.321389
0.239044 0.000000 0.321389
0.285699 0.000000 0.321389
0.332531 0.000000 0.321389
0.379510 0.000000 0.321389
0.426598 0.000000 0.321389
0.473623 0.000000 0.321389
0.520286 0.000000 0.321389
0.566280 0.000000 0.321389
0.610814 0.000000 0.321389
0.652746 0.000000 0.321389
0.997937 0.000000 0.321389
0.000000 0.064225 0.321389
0.048578 0.064225 0.321389
0.096772 0.064225 0.321389
0.144588 0.064225 0.321389
0.192013 0.064225 0.321389
0.239044 0.064225 0.321389
0.285699 0.064225 0.321389
0.332531 0.064225 0.321389
0.379510 0.064225 0.321389
0.426598 0.064225 0.321389
0.473623 0.064225 0.321389
0.520286 0.064225 0.321389
0.566280 0.064225 0.321389
0.610814 0.064225 0.321389
0.652746 0.064225 0.321389
0.997937 0.064225 0.321389
0.000000 0.129465 0.321389
0.048578 0.129465 0.321389
0.096772 0.129465 0.321389
0.144588 0.129465 0.321389
0.192013 0.129465 0.321389
0.239044 0.129465 0.321389
0.285699 0.129465 0.321389
0.332531 0.129465 0.321389
0.379510 0.129465 0.321389
0.426598 0.129465 0.321389
0.473623 0.129465 0.321389
0.520286 0.129465 0.321389
0.566280 0.129465 0.321389
0.610814 0.129465 0.321389
0.652746 0.129465 0.321389
0.997937 0.129465 0.321389
0.000000 0.195702 0.321389
0.048578 0.195702 0.321389
0.096772 0.195702 0.321389
0.144588 0.195702 0.321389
0.192013 0.195702 0.321389
0.239044 0.195702 0.321389
0.285699 0.195702 0.321389
0.332531 0.195702 0.321389
0.379510 0.195702 0.321389
0.426598 0.195702 0.321389
0.473623 0.195702 0.321389
0.520286 0.195702 0.321389
0.566280 0.195702 0.321389
0.610814 0.195702 0.321389
0.652746 0.195702 0.321389
0.997937 0.195702 0.321389
0.000000 0.262639 0.321389
0.048578 0.262639 0.321389
0.096772 0.262639 0.321389
0.144588 0.262639 0.321389
0.192013 0.262639 0.321389
0.239044 0.262639 0.321389
0.285699 0.262639 0.321389
0.332531 0.262639 0.321389
0.379510 0.262639 0.321389
0.426598 0.262639 0.321389
0.473623 0.262639 0.321389
0.520286 0.262639 0.321389
0.566280 0.262639 0.321389
0.610814 0.262639 0.321389
0.652746 0.262639 0.321389
0.997937 0.262639 0.321389
0.000000 0.329342 0.321389
0.048578 0.329342 0.321389
0.096772 0.329342 0.321389
0.144588 0.329342 0.321389
0.192013 0.329342 0.321389
0.239044 0.329342 0.321389
0.285699 0.329342 0.321389
0.332531 0.329342 0.321389
0.379510 0.329342 0.321389
0.426598 0.329342 0.321389
0.473623 0.329342 0.321389
0.520286 0.329342 0.321389
0.566280 0.329342 0.321389
0.610814 0.329342 0.321389
0.652746 0.329342 0.321389
0.997937 0.329342 0.321389
0.000000 0.395952 0.321389
0.048578 0.395952 0.321389
0.096772 0.395952 0.321389
0.144588 0.395952 0.321389
0.192013 0.395952 0.321389
0.239044 0.395952 0.321389
0.285699 0.395952 0.321389
0.332531 0.395952 0.321389
0.379510 0.395952 0.321389
0.426598 0.395952 0.321389
0.473623 0.395952 0.321389
0.520286 0.395952 0.321389
0.566280 0.395952 0.321389
0.610814 0.395952 0.321389
0.652746 0.395952 0.321389
0.997937 0.395952 0.321389
0.000000 0.463110 0.321389
0.048578 0.463110 0.321389
0.096772 0.463110 0.321389
0.144588 0.463110 0.321389
0.192013 0.463110 0.321389
0.239044 0.463110 0.321389
0.285699 0.463110 0.321389
0.332531 0.463110 0.321389
