res/luts/Cool.cube
LUT_3D_SIZE 6
0.000000 0.000000 0.000000
0.144588 0.000000 0.000000
0.285699 0.000000 0.000000
0.426598 0.000000 0.000000
0.566280 0.000000 0.000000
0.997937 0.000000 0.000000
0.000000 0.195702 0.000000
0.144588 0.195702 0.000000
0.285699 0.195702 0.000000
0.426598 0.195702 0.000000
0.566280 0.195702 0.000000
0.997937 0.195702 0.000000
0.000000 0.395952 0.000000
0.144588 0.395952 0.000000
0.285699 0.395952 0.000000
0.426598 0.395952 0.000000
0.566280 0.395952 0.000000
0.997937 0.395952 0.000000
0.000000 0.600640 0.000000
0.144588 0.600640 0.000000
0.285699 0.600640 0.000000
0.426598 0.600640 0.000000
0.566280 0.600640 0.000000
0.997937 0.600640 0.000000
0.000000 0.822253 0.000000
0.144588 0.822253 0.000000
0.285699 0.822253 0.000000
0.426598 0.822253 0.000000
0.566280 0.822253 0.000000
0.997937 0.822253 0.000000
0.000000 0.999854 0.000000
0.144588 0.999854 0.000000
0.285699 0.999854 0.000000
0.426598 0.999854 0.000000
0.566280 0.999854 0.000000
0.997937 0.999854 0.000000
0.000000 0.000000 0.321389
0.144588 0.000000 0.321389
0.285699 0.000000 0.321389
0.426598 0.000000 0.321389
0.566280 0.000000 0.321389
0.997937 0.000000 0.321389
0.000000 0.195702 0.321389
0.144588 0.195702 0.321389
0.285699 0.195702 0.321389
0.426598 0.195702 0.321389
0.566280 0.195702 0.321389
0.997937 0.195702 0.321389
0.000000 0.395952 0.321389
0.144588 0.395952 0.321389
0.285699 0.395952 0.321389
0.426598 0.395952 0.321389
0.566280 0.395952 0.321389
0.997937 0.395952 0.321389
0.000000 0.600640 0.321389
0.144588 0.600640 0.321389
0.285699 0.600640 0.321389
0.426598 0.600640 0.321389
0.566280 0.600640 0.321389
0.997937 0.600640 0.321389
0.000000 0.822253 0.321389
0.144588 0.822253 0.321389
0.285699 0.822253 0.321389
0.426598 0.822253 0.321389
0.566280 0.822253 0.321389
0.997937 0.822253 0.321389
0.000000 0.999854 0.321389
0.144588 0.999854 0.321389
0.285699 0.999854 0.321389
0.426598 0.999854 0.321389
0.566280 0.999854 0.321389
0.997937 0.999854 0.321389
0.000000 0.000000 0.581336
0.144588 0.000000 0.581336
0.285699 0.000000 0.581336
0.426598 0.000000 0.581336
0.566280 0.000000 0.581336
0.997937 0.000000 0.581336
0.000000 0.195702 0.581336
0.144588 0.195702 0.581336
0.285699 0.195702 0.581336
0.426598 0.195702 0.581336
0.566280 0.195702 0.581336
0.997937 0.195702 0.581336
0.000000 0.395952 0.581336
0.144588 0.395952 0.581336
0.285699 0.395952 0.581336
0.426598 0.395952 0.581336
0.566280 0.395952 0.581336
0.997937 0.395952 0.581336
0.000000 0.600640 0.581336
0.144588 0.600640 0.581336
0.285699 0.600640 0.581336
0.426598 0.600640 0.581336
0.566280 0.600640 0.581336
0.997937 0.600640 0.581336
0.000000 0.822253 0.581336
0.144588 0.822253 0.581336
0.285699 0.822253 0.581336
0.426598 0.822253 0.581336
0.566280 0.822253 0.581336
0.997937 0.822253 0.581336
0.000000 0.999854 0.581336
0.144588 0.999854 0.581336
0.285699 0.999854 0.581336
0.426598 0.999854 0.581336
0.566280 0.999854 0.581336
0.997937 0.999854 0.581336
0.000000 0.000000 0.754195
0.144588 0.000000 0.754195
0.285699 0.000000 0.754195
0.426598 0.000000 0.754195
0.566280 0.000000 0.754195
0.997937 0.000000 0.754195
0.000000 0.195702 0.754195
0.144588 0.195702 0.754195
0.285699 0.195702 0.754195
0.426598 0.195702 0.754195
0.566280 0.195702 0.754195
0.997937 0.195702 0.754195
0.000000 0.395952 0.754195
0.144588 0.395952 0.754195
0.285699 0.395952 0.754195
0.426598 0.395952 0.754195
0.566280 0.395952 0.754195
0.997937 0.395952 0.754195
0.000000 0.600640 0.754195
0.144588 0.600640 0.754195
0.285699 0.600640 0.754195
0.426598 0.600640 0.754195
0.566280 0.600640 0.754195
0.997937 0.600640 0.754195
0.000000 0.822253 0.754195
0.144588 0.822253 0.754195
0.285699 0.822253 0.754195
0.426598 0.822253 0.754195
0.566280 0.822253 0.754195
0.997937 0.822253 0.754195
0.000000 0.999854 0.754195
0.144588 0.999854 0.754195
0.285699 0.999854 0.754195
0.426598 0.999854 0.754195
0.566280 0.999854 0.754195
0.997937 0.999854 0.754195
0.000000 0.000000 0.890859
0.144588 0.000000 0.890859
0.285699 0.000000 0.890859
0.426598 0.000000 0.890859
0.566280 0.000000 0.890859
0.997937 0.000000 0.890859
0.000000 0.195702 0.890859
0.144588 0.195702 0.890859
0.285699 0.195702 0.890859
0.426598 0.195702 0.890859
0.566280 0.195702 0.890859
0.997937 0.195702 0.890859
0.000000 0.395952 0.890859
0.144588 0.395952 0.890859
0.285699 0.395952 0.890859
0.426598 0.395952 0.890859
0.566280 0.395952 0.890859
0.997937 0.395952 0.890859
0.000000 0.600640 0.890859
0.144588 0.600640 0.890859
0.285699 0.600640 0.890859
0.426598 0.600640 0.890859
0.566280 0.600640 0.890859
0.997937 0.600640 0.890859
0.000000 0.822253 0.890859
0.144588 0.822253 0.890859
0.285699 0.822253 0.890859
0.426598 0.822253 0.890859
0.566280 0.822253 0.890859
0.997937 0.822253 0.890859
0.000000 0.999854 0.890859
0.144588 0.999854 0.890859
0.285699 0.999854 0.890859
0.426598 0.999854 0.890859
0.566280 0.999854 0.890859
0.997937 0.999854 0.890859
0.000000 0.000000 1.000000
0.144588 0.000000 1.000000
0.285699 0.000000 1.000000
0.426598 0.000000 1.000000
0.566280 0.000000 1.000000
0.997937 0.000000 1.000000
0.000000 0.195702 1.000000
0.144588 0.195702 1.000000
0.285699 0.195702 1.000000
0.426598 0.195702 1.000000
0.566280 0.195702 1.000000
0.997937 0.195702 1.000000
0.000000 0.395952 1.000000
0.144588 0.395952 1.000000
0.285699 0.395952 1.000000
0.426598 0.395952 1.000000
0.566280 0.395952 1.000000
0.997937 0.395952 1.000000
0.000000 0.600640 1.000000
0.144588 0.600640 1.000000
0.285699 0.600640 1.000000
0.426598 0.600640 1.000000
0.566280 0.600640 1.000000
0.997937 0.600640 1.000000
0.000000 0.822253 1.000000
0.144588 0.822253 1.000000
0.285699 0.822253 1.000000
0.426598 0.822253 1.000000
0.566280 0.822253 1.000000
0.997937 0.822253 1.000000
0.000000 0.999854 1.000000
0.144588 0.999854 1.000000
0.285699 0.999854 1.000000
0.426598 0.999854 1.000000
0.566280 0.999854 1.000000
0.997937 0.999854 1.000000
