res/luts/Sepia.cube
LUT_3D_SIZE 16
-0.045437 -0.032274 -0.002665
-0.034273 -0.024346 -0.002171
0.077196 0.054825 0.004254
0.128818 0.091493 0.007557
0.176906 0.125689 0.011428
0.223951 0.159151 0.016500
0.270332 0.192217 0.023121
0.316427 0.225183 0.031532
0.362187 0.258037 0.041825
0.407755 0.290922 0.054123
0.452303 0.323337 0.068511
0.495653 0.355202 0.084980
0.537840 0.386632 0.103636
0.578808 0.417627 0.124548
0.618505 0.448361 0.147848
0.665142 0.485659 0.180381
0.038100 0.027031 -0.001749
0.048100 0.034137 -0.001066
0.090499 0.064262 0.004485
0.135832 0.096471 0.007709
0.181513 0.128941 0.011617
0.227252 0.161488 0.016742
0.272908 0.194048 0.023418
0.318469 0.226642 0.031857
0.363912 0.259286 0.042182
0.409139 0.291927 0.054480
0.453450 0.324177 0.068871
0.496681 0.355966 0.085373
0.538746 0.387256 0.104036
0.579550 0.418227 0.124944
0.619173 0.448866 0.148241
0.665690 0.486093 0.180807
0.137939 0.097946 0.007005
0.139880 0.099334 0.007083
0.154764 0.109915 0.008416
0.180931 0.128518 0.010961
0.214538 0.152437 0.014743
0.252439 0.179433 0.019909
0.292838 0.208277 0.026658
0.334772 0.238311 0.035175
0.377568 0.269095 0.045533
0.420577 0.300218 0.057875
0.463104 0.331216 0.072259
0.504935 0.362066 0.088759
0.545905 0.392666 0.107448
0.585759 0.422948 0.128346
0.624578 0.453109 0.151629
0.670241 0.489801 0.184203
0.218580 0.155281 0.014215
0.219640 0.156037 0.014306
0.227837 0.161881 0.015440
0.244092 0.173459 0.017835
0.267458 0.190117 0.021585
0.296535 0.210902 0.026826
0.329751 0.234698 0.033669
0.366016 0.260757 0.042260
0.404180 0.288321 0.052675
0.443177 0.316657 0.065046
0.482502 0.345456 0.079454
0.521705 0.374516 0.095965
0.560407 0.403599 0.114625
0.598459 0.432731 0.135539
0.635679 0.461856 0.158809
0.679694 0.497574 0.191360
0.296367 0.210751 0.025748
0.297042 0.211236 0.025852
0.302506 0.215134 0.026959
0.313647 0.223106 0.029302
0.330537 0.235226 0.033037
0.352728 0.251157 0.038292
0.379433 0.270391 0.045177
0.409541 0.292191 0.053809
0.442019 0.315782 0.064273
0.476107 0.340729 0.076654
0.511176 0.366680 0.091048
0.546822 0.393327 0.107564
0.582470 0.420378 0.126233
0.617819 0.447775 0.147130
0.652732 0.475429 0.170373
0.694334 0.509652 0.202866
0.373210 0.265861 0.042501
0.373712 0.266219 0.042616
0.377677 0.269072 0.043694
0.385912 0.275020 0.046002
0.398587 0.284187 0.049691
0.415668 0.296579 0.054915
0.436665 0.311811 0.061776
0.460954 0.329577 0.070382
0.487974 0.349464 0.080836
0.517088 0.370992 0.093225
0.547716 0.393913 0.107634
0.579226 0.417874 0.124135
0.611264 0.442600 0.142785
0.643396 0.467914 0.163653
0.675381 0.493792 0.186841
0.713860 0.526189 0.219249
0.448355 0.320256 0.064832
0.448730 0.320543 0.064949
0.451719 0.322716 0.066033
0.457814 0.327207 0.068278
0.467427 0.334237 0.071903
0.480588 0.343914 0.077057
0.497287 0.356215 0.083916
0.516895 0.370817 0.092478
0.539167 0.387446 0.102886
0.563595 0.405910 0.115223
0.589786 0.425924 0.129605
0.617206 0.447176 0.146068
0.645391 0.469500 0.164703
0.674010 0.492598 0.185484
0.702858 0.516583 0.208658
0.737918 0.546995 0.240956
0.520260 0.373217 0.093033
0.520534 0.373388 0.093140
0.522799 0.375102 0.094194
0.527567 0.378691 0.096426
0.535091 0.384299 0.100033
0.545527 0.392142 0.105150
0.558745 0.402154 0.111912
0.574660 0.414210 0.120423
0.592965 0.428262 0.130775
0.613354 0.444102 0.143089
0.635466 0.461482 0.157399
0.659028 0.480294 0.173814
0.683432 0.500260 0.192352
0.708442 0.521277 0.213082
0.734037 0.543327 0.236198
0.765439 0.571739 0.268386
0.588620 0.424806 0.127324
0.588841 0.424992 0.127455
0.590657 0.426366 0.128500
0.594398 0.429251 0.130700
0.600369 0.433876 0.134249
0.608681 0.440319 0.139330
0.619307 0.448646 0.146030
0.632259 0.458836 0.154483
0.647281 0.470788 0.164777
0.664163 0.484414 0.176978
0.682740 0.499616 0.191240
0.702655 0.516249 0.207562
0.723613 0.534166 0.226035
0.745362 0.553241 0.246692
0.767785 0.573611 0.269776
0.795555 0.600128 0.301755
0.653219 0.475393 0.168059
0.653378 0.475498 0.168147
0.654820 0.476670 0.169200
0.657812 0.479077 0.171369
0.662570 0.482944 0.174900
0.669298 0.488393 0.179928
0.677874 0.495405 0.186541
0.688360 0.504098 0.194899
0.700725 0.514443 0.205154
0.714629 0.526318 0.217277
0.730156 0.539709 0.231445
0.747003 0.554609 0.247735
0.764809 0.570746 0.266078
0.783528 0.588278 0.286682
0.803053 0.607128 0.309670
0.827660 0.632180 0.341531
0.713561 0.525165 0.215372
0.713722 0.525288 0.215484
0.714883 0.526289 0.216525
0.717276 0.528368 0.218711
0.721128 0.531640 0.222155
0.726542 0.536350 0.227170
0.733503 0.542456 0.233758
0.742087 0.550018 0.242056
0.752201 0.559089 0.252202
0.763818 0.569659 0.264277
0.776713 0.581669 0.278357
0.790894 0.595166 0.294566
0.806074 0.609991 0.312822
0.822247 0.626338 0.333449
0.839088 0.643905 0.356119
0.860963 0.667864 0.387842
0.769462 0.574688 0.269477
0.769595 0.574784 0.269598
0.770541 0.575661 0.270648
0.772468 0.577439 0.272743
0.775609 0.580397 0.276233
0.780009 0.584544 0.281181
0.785740 0.589990 0.287759
0.792834 0.596750 0.295986
0.801182 0.604961 0.306084
0.810845 0.614554 0.318044
0.821776 0.625656 0.332110
0.833645 0.638016 0.348075
0.846799 0.652008 0.366371
0.860771 0.667438 0.386745
0.875738 0.684403 0.409449
0.895476 0.707708 0.440998
0.821331 0.624955 0.330699
0.821440 0.625044 0.330842
0.822157 0.625822 0.331828
0.823786 0.627472 0.333931
0.826393 0.630171 0.337445
0.829984 0.633901 0.342266
0.834778 0.638951 0.348836
0.840624 0.645118 0.356902
0.847648 0.652750 0.366905
0.855867 0.661749 0.378838
0.865253 0.672238 0.392854
0.875677 0.684143 0.408835
0.887131 0.697649 0.426965
0.899722 0.712645 0.447290
0.913431 0.729433 0.469917
0.932068 0.752912 0.501328
0.869734 0.677129 0.398924
0.869829 0.677186 0.399044
0.870438 0.677919 0.400040
0.871830 0.679442 0.402099
0.874120 0.682086 0.405660
0.877138 0.685599 0.410424
0.881286 0.690447 0.416952
0.886362 0.696458 0.425039
0.892569 0.703780 0.434996
0.899788 0.712519 0.446820
0.908193 0.722836 0.460750
0.917752 0.734595 0.476581
0.928882 0.748459 0.494644
0.941767 0.764372 0.514918
0.956732 0.782684 0.537493
0.974643 0.806308 0.568645
0.917104 0.733613 0.474906
0.917093 0.733641 0.474923
0.917747 0.734359 0.475948
0.919073 0.736038 0.478073
0.921091 0.738603 0.481428
0.924131 0.742290 0.486249
0.928185 0.747321 0.492715
0.933389 0.753673 0.500948
0.939689 0.761442 0.510738
0.947441 0.770936 0.522496
0.956707 0.782253 0.536328
0.967168 0.795145 0.552133
0.976964 0.808502 0.570139
0.985499 0.821736 0.590281
0.992203 0.834715 0.612714
0.998023 0.850526 0.643530
1.062241 0.882140 0.628912
1.062281 0.882290 0.629173
1.062553 0.882884 0.630216
1.063174 0.884218 0.632526
1.064137 0.886298 0.636206
1.065371 0.889235 0.641446
1.066818 0.892942 0.648352
1.068260 0.897443 0.657016
1.069584 0.902634 0.667668
1.070511 0.908452 0.680340
1.070764 0.914666 0.695121
1.070219 0.921468 0.712084
1.068732 0.928712 0.731182
1.066285 0.936494 0.752523
1.062891 0.944930 0.776230
1.059941 0.957599 0.808675
-0.520871 -0.430514 -0.303673
-0.520450 -0.430348 -0.303885
-0.517523 -0.428915 -0.304483
-0.511281 -0.425872 -0.305631
-0.501060 -0.420886 -0.307459
-0.485918 -0.413589 -0.309959
-0.464742 -0.403571 -0.313268
-0.435743 -0.390276 -0.317244
-0.396053 -0.372974 -0.321938
-0.339836 -0.350554 -0.327252
-0.252148 -0.321637 -0.333013
0.122352 -0.283680 -0.339071
0.297121 -0.229910 -0.345152
0.393172 -0.134179 -0.351044
0.469065 0.175293 -0.356548
0.542423 0.278385 -0.355224
0.045166 0.032055 -0.000867
0.053110 0.037699 0.001163
0.091197 0.064755 0.004503
0.134097 0.095238 0.007545
0.178828 0.127041 0.011323
0.224895 0.159829 0.016414
0.270956 0.192654 0.023074
0.316726 0.225385 0.031484
0.362289 0.258097 0.041761
0.407537 0.290754 0.053994
0.451917 0.323050 0.068323
0.495107 0.354789 0.084714
0.537231 0.386150 0.103295
0.577995 0.417005 0.124085
0.617621 0.447663 0.147263
0.664161 0.484863 0.179726
0.139044 0.098739 0.007087
0.142117 0.100919 0.007253
0.157780 0.112058 0.008668
0.181981 0.129272 0.011017
0.213969 0.152025 0.014627
0.251396 0.178689 0.019726
0.291817 0.207541 0.026458
0.333685 0.237526 0.034925
0.376434 0.268289 0.045240
0.419472 0.299399 0.057519
0.461927 0.330365 0.071831
0.503795 0.361203 0.088264
0.544719 0.391750 0.106867
0.584598 0.422058 0.127692
0.623395 0.452156 0.150876
0.669014 0.488797 0.183295
0.218962 0.155556 0.014241
0.221977 0.157702 0.014615
0.230277 0.163615 0.015749
0.247508 0.175890 0.018339
0.268789 0.191082 0.021755
0.296529 0.210905 0.026781
0.329308 0.234376 0.033551
0.365316 0.260240 0.042069
0.403390 0.287731 0.052437
0.442288 0.315992 0.064737
0.481565 0.344780 0.079083
0.520618 0.373702 0.095479
0.559343 0.402854 0.114089
0.597342 0.431856 0.134888
0.634539 0.460961 0.158063
0.678594 0.496592 0.190455
0.296520 0.210857 0.025757
0.299503 0.212969 0.026361
0.304740 0.216749 0.027418
0.316236 0.224971 0.029860
0.334028 0.237740 0.033851
0.353925 0.252029 0.038553
0.379687 0.270573 0.045214
0.409299 0.292008 0.053715
0.441522 0.315409 0.064092
0.475421 0.340239 0.076386
0.510413 0.366099 0.090712
0.545913 0.392653 0.107131
0.581515 0.419685 0.125715
0.616855 0.447008 0.146513
0.651627 0.474598 0.169647
0.693235 0.508743 0.201965
0.373262 0.265897 0.042504
0.375626 0.267594 0.043160
0.379352 0.270275 0.044168
0.387720 0.276322 0.046538
0.400663 0.285685 0.050319
0.418386 0.298516 0.055787
0.437652 0.312526 0.062089
0.461260 0.329792 0.070473
0.487856 0.349335 0.080767
0.516742 0.370739 0.093056
0.547125 0.393497 0.107353
0.578534 0.417354 0.123761
0.610465 0.441994 0.142303
0.642490 0.467230 0.163048
0.674484 0.493063 0.186169
0.712935 0.525372 0.218419
0.448411 0.320312 0.064850
0.449992 0.321467 0.065430
0.452745 0.323485 0.066425
0.458985 0.328067 0.068733
0.468696 0.335155 0.072411
0.482107 0.345045 0.077684
0.499148 0.357589 0.084724
0.517637 0.371349 0.092785
0.539395 0.387622 0.102968
0.563504 0.405833 0.115159
0.589466 0.425683 0.129425
0.616739 0.446807 0.145762
0.644777 0.468992 0.164259
0.673277 0.492026 0.184937
0.702113 0.515920 0.207993
0.736999 0.546175 0.240104
0.520333 0.373249 0.093064
0.521395 0.374044 0.093563
0.523640 0.375739 0.094594
0.528382 0.379280 0.096832
0.536034 0.385021 0.100503
0.546430 0.392850 0.105635
0.559834 0.402934 0.112489
0.576004 0.415273 0.121182
0.593529 0.428710 0.131097
0.613514 0.444216 0.143163
0.635413 0.461421 0.157343
0.658640 0.480008 0.173544
0.682999 0.499928 0.192037
0.707909 0.520813 0.212607
0.733366 0.542779 0.235609
0.764716 0.571057 0.267595
0.588704 0.424867 0.127370
0.589457 0.425465 0.127829
0.591180 0.426776 0.128822
0.594976 0.429687 0.131040
0.600947 0.434327 0.134630
0.609316 0.440806 0.139726
0.619985 0.449179 0.146488
0.633036 0.459437 0.155004
0.648283 0.471548 0.165463
0.664602 0.484749 0.177281
0.682900 0.499728 0.191329
0.702564 0.516152 0.207461
0.723335 0.533916 0.225770
0.744933 0.552876 0.246256
0.767295 0.573129 0.269216
0.794956 0.599546 0.301033
0.653284 0.475452 0.168112
0.653785 0.475854 0.168459
0.655160 0.476970 0.169466
0.658203 0.479393 0.171671
0.662963 0.483272 0.175220
0.669706 0.488746 0.180285
0.678295 0.495781 0.186912
0.688887 0.504576 0.195384
0.701245 0.514897 0.205620
0.715394 0.526957 0.217956
0.730496 0.539948 0.231692
0.746992 0.554626 0.247742
0.764718 0.570650 0.265955
0.783335 0.588062 0.286420
0.802684 0.606786 0.309233
0.827152 0.631669 0.340888
0.713618 0.525215 0.215430
0.713949 0.525523 0.215722
0.715078 0.526473 0.216718
0.717486 0.528568 0.218915
0.721407 0.531875 0.222435
0.726770 0.536569 0.227397
0.733779 0.542657 0.234000
0.742444 0.550286 0.242381
0.752490 0.559351 0.252539
0.764169 0.569992 0.264684
0.777272 0.582162 0.278950
0.791050 0.595302 0.294710
0.806060 0.609978 0.312810
0.822079 0.626127 0.333202
0.838882 0.643695 0.355775
0.860575 0.667460 0.387246
0.769534 0.574740 0.269551
0.769748 0.574945 0.269795
0.770660 0.575750 0.270757
0.772619 0.577600 0.272935
0.775706 0.580470 0.276346
0.780176 0.584699 0.281373
0.785903 0.590144 0.287940
0.792921 0.596896 0.296149
0.801428 0.605171 0.306349
0.811080 0.614779 0.318372
0.822006 0.625864 0.332435
0.834051 0.638455 0.348639
0.846890 0.652103 0.366533
0.860659 0.667309 0.386570
0.875631 0.684279 0.409252
0.895219 0.707470 0.440585
0.821407 0.625005 0.330794
0.821456 0.625081 0.330909
0.822153 0.625823 0.331837
0.823864 0.627567 0.334080
0.826415 0.630193 0.337478
0.829989 0.633910 0.342280
0.834813 0.638975 0.348899
0.840690 0.645215 0.356999
0.847814 0.652882 0.367110
0.856053 0.661939 0.379147
0.865329 0.672355 0.392930
0.875788 0.684324 0.408999
0.887384 0.697888 0.427298
0.899688 0.712628 0.447238
0.913279 0.729275 0.469691
0.931778 0.752526 0.500847
0.869788 0.677182 0.398988
0.869752 0.677150 0.398953
0.870399 0.677882 0.399969
0.871840 0.679516 0.402226
0.874070 0.682059 0.405603
0.877152 0.685603 0.410402
0.881285 0.690450 0.416969
0.886375 0.696455 0.425072
0.892545 0.703792 0.435051
0.899817 0.712540 0.446901
0.908236 0.722932 0.460862
0.917826 0.734722 0.476718
0.929036 0.748587 0.494870
0.941917 0.764584 0.515230
0.956705 0.782665 0.537451
0.974546 0.806121 0.568343
0.917174 0.733688 0.475032
0.917051 0.733559 0.474837
0.917597 0.734256 0.475746
0.918983 0.735867 0.477910
0.921101 0.738543 0.481384
0.924026 0.742172 0.486106
0.928103 0.747197 0.492605
0.933297 0.753585 0.500802
0.939626 0.761339 0.510643
0.947350 0.770851 0.522433
0.956683 0.782240 0.536330
0.967141 0.795127 0.552125
0.976970 0.808469 0.570178
0.985493 0.821809 0.590398
0.992238 0.834789 0.612845
0.997999 0.850463 0.643334
1.062251 0.882219 0.629091
1.061998 0.881953 0.628749
1.062361 0.882650 0.629968
1.062984 0.883992 0.632279
1.063936 0.886089 0.635933
1.065160 0.888985 0.641152
1.066618 0.892747 0.648083
1.068098 0.897220 0.656788
1.069432 0.902414 0.667416
1.070382 0.908234 0.680078
1.070662 0.914572 0.694923
1.070121 0.921354 0.711864
1.068660 0.928606 0.731047
1.066227 0.936437 0.752448
1.062820 0.944861 0.776128
1.059897 0.957559 0.808678
-0.519729 -0.429848 -0.303673
-0.519235 -0.429602 -0.303777
-0.516305 -0.428158 -0.304343
-0.510081 -0.425128 -0.305508
-0.499808 -0.420125 -0.307316
-0.484629 -0.412806 -0.309823
-0.463365 -0.402789 -0.313100
-0.434246 -0.389475 -0.317102
-0.394349 -0.372070 -0.321792
-0.337792 -0.349602 -0.327110
-0.249206 -0.320631 -0.332878
0.130238 -0.282448 -0.338935
0.299289 -0.228369 -0.345037
0.394576 -0.130982 -0.350907
0.470137 0.177402 -0.356378
0.543250 0.279481 -0.355012
0.066569 0.047265 0.003045
0.063948 0.045397 0.002466
0.101559 0.072125 0.005359
0.141985 0.100849 0.008356
0.185428 0.131741 0.012195
0.230257 0.163653 0.017286
0.275237 0.195719 0.023927
0.320292 0.227952 0.032334
0.365384 0.260312 0.042628
0.410290 0.292760 0.054906
0.454310 0.324808 0.069247
0.497367 0.356459 0.085724
0.539325 0.387724 0.104372
0.580023 0.418558 0.125259
0.619509 0.449153 0.148507
0.665900 0.486250 0.180926
0.144741 0.102787 0.007634
0.148294 0.105308 0.007852
0.160088 0.113693 0.008762
0.179102 0.127211 0.010489
0.201981 0.143491 0.012825
0.240657 0.171035 0.017942
0.283354 0.201505 0.024833
0.326203 0.232172 0.033238
0.369470 0.263270 0.043405
0.412740 0.294527 0.055430
0.455410 0.325586 0.069465
0.497305 0.356381 0.085546
0.538258 0.386928 0.103732
0.578085 0.417065 0.124075
0.616875 0.447048 0.146744
0.662555 0.483577 0.178617
0.221950 0.157683 0.014675
0.224859 0.159745 0.014981
0.233645 0.166011 0.016069
0.256699 0.182436 0.019665
0.270966 0.192620 0.021825
0.294277 0.209274 0.026091
0.326123 0.232083 0.032723
0.361627 0.257576 0.041075
0.399371 0.284818 0.051232
0.438023 0.312881 0.063282
0.477121 0.341506 0.077350
0.516083 0.370329 0.093448
0.554659 0.399259 0.111698
0.592542 0.428146 0.132120
0.629681 0.457107 0.154868
0.673572 0.492538 0.186677
0.298487 0.212263 0.026167
0.300860 0.213961 0.026580
0.309886 0.220420 0.028438
0.323038 0.229830 0.031265
0.345315 0.245823 0.036458
0.357464 0.254560 0.039221
0.379799 0.270669 0.045082
0.407899 0.290966 0.053198
0.439139 0.313677 0.063228
0.472403 0.338018 0.075202
0.506971 0.363509 0.089199
0.542123 0.389790 0.105272
0.577432 0.416550 0.123471
0.612535 0.443646 0.143857
0.647201 0.471012 0.166518
0.688663 0.504921 0.198274
0.374751 0.266967 0.042918
0.376386 0.268129 0.043318
0.384769 0.274217 0.045710
0.393201 0.280288 0.048118
0.407463 0.290607 0.052390
0.428079 0.305569 0.058937
0.440851 0.314866 0.063048
0.462098 0.330391 0.070668
0.487126 0.348806 0.080403
0.515030 0.369463 0.092260
0.544687 0.391656 0.106120
0.575579 0.415074 0.122127
0.607084 0.439361 0.140242
0.638849 0.464304 0.160559
0.670593 0.489849 0.183191
0.708717 0.521809 0.214784
0.449489 0.321087 0.065242
0.450531 0.321860 0.065594
0.457123 0.326694 0.068074
0.463128 0.331069 0.070314
0.473275 0.338551 0.074238
0.487450 0.348998 0.079898
0.506390 0.362989 0.087852
0.520350 0.373366 0.093911
0.540231 0.388228 0.103289
0.563046 0.405479 0.114868
0.588077 0.424597 0.128584
0.614621 0.445160 0.144428
0.642161 0.466898 0.162440
0.670274 0.489570 0.182662
0.698735 0.513096 0.205190
0.733400 0.543012 0.236664
0.521103 0.373804 0.093421
0.521838 0.374376 0.093754
0.526925 0.378205 0.096178
0.531434 0.381572 0.098331
0.539233 0.387392 0.102103
0.550016 0.395520 0.107495
0.563907 0.406066 0.114706
0.581405 0.419417 0.124204
0.595687 0.430358 0.132277
0.614103 0.444676 0.143468
0.634935 0.461070 0.156996
0.657467 0.479054 0.172674
0.681057 0.498344 0.190498
0.705596 0.518828 0.210591
0.730704 0.540368 0.233026
0.761589 0.568187 0.264298
0.589343 0.425366 0.127754
0.589807 0.425720 0.128019
0.593557 0.428620 0.130268
0.597124 0.431374 0.132375
0.603263 0.436114 0.136076
0.611764 0.442742 0.141320
0.622675 0.451277 0.148268
0.636104 0.461901 0.157156
0.652214 0.474739 0.168300
0.666232 0.486031 0.178422
0.683210 0.499965 0.191510
0.702107 0.515707 0.206998
0.722172 0.532911 0.224680
0.743220 0.551338 0.244583
0.765060 0.571092 0.266850
0.792441 0.597047 0.298002
0.653778 0.475848 0.168452
0.654161 0.476123 0.168714
0.656769 0.478245 0.170657
0.659613 0.480545 0.172757
0.664520 0.484532 0.176402
0.671346 0.490077 0.181560
0.680076 0.497286 0.188392
0.690836 0.506214 0.197052
0.703470 0.516782 0.207589
0.718307 0.529423 0.220546
0.731618 0.540962 0.232740
0.747228 0.554732 0.247857
0.764101 0.570084 0.265256
0.782128 0.586915 0.285057
0.800993 0.605137 0.307164
0.825055 0.629518 0.338119
0.714064 0.525586 0.215802
0.714233 0.525761 0.216002
0.716057 0.527300 0.217631
0.718386 0.529332 0.219777
0.722267 0.532674 0.223299
0.727827 0.537480 0.228437
0.734865 0.543693 0.235124
0.743630 0.551383 0.243641
0.753934 0.560649 0.254045
0.765744 0.571458 0.266432
0.779289 0.584106 0.281259
0.791789 0.595977 0.295525
0.805963 0.609859 0.312632
0.821451 0.625480 0.332325
0.837675 0.642396 0.354107
0.858871 0.665589 0.384740
0.769933 0.575088 0.269972
0.770079 0.575199 0.270120
0.771142 0.576218 0.271334
0.773143 0.578075 0.273534
0.776239 0.580984 0.276996
0.780680 0.585214 0.282038
0.786503 0.590722 0.288679
0.793652 0.597608 0.297063
0.802215 0.605963 0.307422
0.812005 0.615740 0.319613
0.823057 0.626973 0.333884
0.835552 0.640029 0.350706
0.847332 0.652584 0.367107
0.860413 0.666999 0.386184
0.874855 0.683384 0.408057
0.893873 0.705833 0.438415
0.821679 0.625322 0.331153
0.821770 0.625397 0.331283
0.822242 0.625932 0.331972
0.823945 0.627675 0.334223
0.826619 0.630401 0.337773
0.830229 0.634171 0.342653
0.835020 0.639213 0.349225
0.841026 0.645575 0.357543
0.848120 0.653230 0.367629
0.856454 0.662407 0.379786
0.865954 0.673080 0.393993
0.876492 0.685075 0.410127
0.888444 0.699122 0.428996
0.899901 0.712781 0.447522
0.912877 0.728756 0.469010
0.930745 0.751225 0.499042
0.870033 0.677451 0.399394
0.870084 0.677530 0.399505
0.870235 0.677734 0.399750
0.871703 0.679321 0.402020
0.873917 0.681944 0.405447
0.877052 0.685540 0.410332
0.881224 0.690409 0.416933
0.886399 0.696543 0.425158
0.892651 0.703943 0.435219
0.899987 0.712745 0.447222
0.908425 0.723135 0.461174
0.918163 0.735157 0.477285
0.929408 0.749126 0.495600
0.942656 0.765523 0.516472
0.956666 0.782576 0.537359
0.973833 0.805160 0.566959
0.917367 0.733953 0.475338
0.917373 0.733976 0.475375
0.917129 0.733684 0.475017
0.918557 0.735388 0.477333
0.920689 0.738036 0.480792
0.923744 0.741817 0.485673
0.927714 0.746728 0.492073
0.933026 0.753261 0.500400
0.939331 0.761065 0.510307
0.947233 0.770713 0.522300
0.956541 0.782124 0.536238
0.967088 0.795145 0.552131
0.976984 0.808555 0.570358
0.985563 0.821931 0.590680
0.992514 0.835312 0.613762
0.997925 0.850092 0.642547
1.062313 0.882434 0.629488
1.062147 0.882279 0.629362
1.061460 0.881538 0.628528
1.062201 0.883024 0.631009
1.063244 0.885237 0.634785
1.064460 0.888070 0.639916
1.066004 0.891964 0.646951
1.067551 0.896471 0.655705
1.068964 0.901808 0.666500
1.069992 0.907660 0.679231
1.070317 0.913986 0.694072
1.069856 0.920880 0.711142
1.068429 0.928203 0.730354
1.066048 0.936130 0.752056
1.062670 0.944659 0.775896
1.059766 0.957538 0.808709
-0.517520 -0.428660 -0.303857
-0.516865 -0.428255 -0.303786
-0.513710 -0.426519 -0.303947
-0.507410 -0.423369 -0.304923
-0.497112 -0.418365 -0.306737
-0.481825 -0.411022 -0.309267
-0.460436 -0.400940 -0.312540
-0.431081 -0.387571 -0.316574
-0.390791 -0.370145 -0.321309
-0.333469 -0.347535 -0.326625
-0.242807 -0.318373 -0.332415
0.144052 -0.279833 -0.338482
0.303648 -0.225010 -0.344598
0.397411 -0.123765 -0.350524
0.472247 0.181647 -0.356049
0.544909 0.281669 -0.354640
0.093158 0.066160 0.005024
0.086651 0.061536 0.004484
0.117054 0.083138 0.006676
0.155419 0.110401 0.009586
0.193806 0.137699 0.013117
0.236192 0.167882 0.018118
0.279759 0.198951 0.024724
0.323941 0.230555 0.033124
0.368421 0.262511 0.043417
0.412796 0.294585 0.055679
0.456486 0.326397 0.070033
0.499211 0.357818 0.086495
0.540920 0.388913 0.105146
0.581384 0.419622 0.126020
0.620688 0.450082 0.149264
0.666924 0.487086 0.181692
0.155742 0.110608 0.008705
0.157045 0.111527 0.008665
0.136364 0.096802 0.004863
0.182766 0.129826 0.011127
0.211617 0.150361 0.014663
0.250770 0.178244 0.020034
0.291930 0.207639 0.026824
0.333413 0.237348 0.035155
0.375666 0.267742 0.045291
0.418220 0.298512 0.057366
0.460347 0.329243 0.071463
0.501834 0.359771 0.087641
0.542429 0.390071 0.105941
0.582076 0.420161 0.126452
0.620635 0.450033 0.149282
0.666055 0.486393 0.181097
0.228040 0.162027 0.015570
0.231720 0.164647 0.015952
0.244562 0.173799 0.017885
0.254135 0.180609 0.019130
0.253602 0.180209 0.018074
0.271485 0.192962 0.021012
0.308281 0.219293 0.028601
0.346433 0.246656 0.037223
0.385558 0.274845 0.047265
0.425054 0.303460 0.059006
0.464467 0.332202 0.072560
0.503522 0.360997 0.088012
0.542118 0.389804 0.105488
0.579883 0.418432 0.124995
0.616889 0.447051 0.146691
0.660810 0.482185 0.177394
0.302460 0.215097 0.027008
0.304844 0.216809 0.027429
0.315952 0.224778 0.029833
0.315474 0.224419 0.029079
0.356360 0.253777 0.038847
0.358492 0.255272 0.038886
0.375764 0.267697 0.043486
0.402346 0.286913 0.051248
0.432602 0.308902 0.060880
0.465305 0.332803 0.072442
0.499293 0.357824 0.085909
0.534001 0.383662 0.101358
0.568881 0.410018 0.118852
0.603612 0.436701 0.138441
0.638017 0.463685 0.160269
0.679150 0.497098 0.190794
0.377658 0.269055 0.043731
0.379252 0.270211 0.044128
0.388425 0.276824 0.046717
0.393845 0.280749 0.048075
0.412852 0.294507 0.053861
0.440712 0.314757 0.063025
0.443964 0.317105 0.063751
0.461818 0.330174 0.070262
0.484499 0.346851 0.079160
0.510673 0.366233 0.090223
0.539216 0.387559 0.103407
0.569222 0.410212 0.118661
0.600062 0.433881 0.136008
0.631212 0.458279 0.155496
0.662422 0.483237 0.177161
0.700285 0.514576 0.207530
0.451641 0.322668 0.066036
0.452617 0.323382 0.066367
0.459179 0.328210 0.068799
0.467006 0.333919 0.071706
0.478329 0.342255 0.076170
0.494560 0.354213 0.082809
0.517530 0.371265 0.092711
0.523573 0.375756 0.095130
0.541081 0.388837 0.103495
0.561454 0.404236 0.113892
0.584794 0.422066 0.126634
0.610127 0.441639 0.141596
0.636734 0.462552 0.158712
0.664068 0.484500 0.178001
0.691806 0.507318 0.199521
0.725946 0.536480 0.229677
0.522794 0.375102 0.094215
0.523468 0.375623 0.094524
0.528181 0.379152 0.096748
