res/luts/Sepia.cube
LUT_3D_SIZE 6
-0.045437 -0.032274 -0.002665
0.128818 0.091493 0.007557
0.270332 0.192217 0.023121
0.407755 0.290922 0.054123
0.537840 0.386632 0.103636
0.665142 0.485659 0.180381
0.218580 0.155281 0.014215
0.244092 0.173459 0.017835
0.329751 0.234698 0.033669
0.443177 0.316657 0.065046
0.560407 0.403599 0.114625
0.679694 0.497574 0.191360
0.448355 0.320256 0.064832
0.457814 0.327207 0.068278
0.497287 0.356215 0.083916
0.563595 0.405910 0.115223
0.645391 0.469500 0.164703
0.737918 0.546995 0.240956
0.653219 0.475393 0.168059
0.657812 0.479077 0.171369
0.677874 0.495405 0.186541
0.714629 0.526318 0.217277
0.764809 0.570746 0.266078
0.827660 0.632180 0.341531
0.821331 0.624955 0.330699
0.823786 0.627472 0.333931
0.834778 0.638951 0.348836
0.855867 0.661749 0.378838
0.887131 0.697649 0.426965
0.932068 0.752912 0.501328
1.062241 0.882140 0.628912
1.063174 0.884218 0.632526
1.066818 0.892942 0.648352
1.070511 0.908452 0.680340
1.068732 0.928712 0.731182
1.059941 0.957599 0.808675
-0.517520 -0.428660 -0.303857
-0.507410 -0.423369 -0.304923
-0.460436 -0.400940 -0.312540
-0.333469 -0.347535 -0.326625
0.303648 -0.225010 -0.344598
0.544909 0.281669 -0.354640
0.228040 0.162027 0.015570
0.254135 0.180609 0.019130
0.308281 0.219293 0.028601
0.425054 0.303460 0.059006
0.542118 0.389804 0.105488
0.660810 0.482185 0.177394
0.451641 0.322668 0.066036
0.467006 0.333919 0.071706
0.517530 0.371265 0.092711
0.561454 0.404236 0.113892
0.636734 0.462552 0.158712
0.725946 0.536480 0.229677
0.654838 0.476680 0.169224
0.662060 0.482552 0.174640
0.683115 0.499808 0.190886
0.723591 0.534004 0.225371
0.762922 0.568995 0.263972
0.820745 0.625054 0.332419
0.822197 0.625851 0.331876
0.823966 0.627717 0.334334
0.835449 0.639727 0.349950
0.857312 0.663344 0.381136
0.890496 0.701561 0.432271
0.928655 0.748559 0.495571
1.062414 0.882799 0.630223
1.060517 0.880843 0.628179
1.064813 0.890264 0.644668
1.069200 0.906444 0.677339
1.068052 0.927501 0.729151
1.059601 0.957479 0.808804
-0.502271 -0.420809 -0.305695
-0.490668 -0.414008 -0.304981
-0.438515 -0.386856 -0.307286
-0.300659 -0.331617 -0.322033
0.331890 -0.198542 -0.340966
0.555971 0.296100 -0.352011
0.265138 0.188493 0.021552
0.204673 0.145353 0.010676
0.340463 0.242421 0.036845
0.445870 0.318656 0.066506
0.556692 0.400831 0.113168
0.671598 0.490912 0.185306
0.466090 0.333273 0.071491
0.488607 0.349811 0.079826
0.530425 0.380529 0.095219
0.528544 0.379343 0.096346
0.590650 0.426574 0.130055
0.667767 0.487695 0.181949
0.661910 0.482413 0.174464
0.669512 0.488602 0.180267
0.682981 0.499619 0.190468
0.745537 0.553128 0.245643
0.754085 0.560759 0.254093
0.792663 0.596983 0.297200
0.826027 0.629812 0.336975
0.828086 0.631959 0.339881
0.834515 0.638834 0.349007
0.860599 0.667206 0.386446
0.902013 0.715286 0.450760
0.915887 0.732495 0.473869
1.063550 0.885817 0.635692
1.062038 0.884259 0.634213
1.056042 0.878533 0.628726
1.064233 0.898638 0.665389
1.065715 0.923061 0.721761
1.058675 0.957725 0.810378
-0.469510 -0.404599 -0.309924
-0.456746 -0.397415 -0.309238
-0.395650 -0.365030 -0.307235
-0.212006 -0.296184 -0.313042
0.379957 -0.121794 -0.334168
0.577073 0.321469 -0.347922
0.322898 0.229817 0.032794
0.280679 0.199571 0.024095
0.371103 0.264483 0.044535
0.477258 0.341656 0.078034
0.577192 0.416462 0.124079
0.685195 0.502121 0.195887
0.493538 0.353494 0.082596
0.490687 0.351332 0.080876
0.358239 0.254511 0.023726
0.529321 0.380187 0.099215
0.611099 0.442625 0.143618
0.687406 0.504042 0.197943
0.675793 0.493736 0.185040
0.685183 0.501454 0.192295
0.711978 0.523576 0.212917
0.747854 0.554012 0.242815
0.742866 0.550399 0.241297
0.750521 0.557694 0.251059
0.833530 0.637641 0.347161
0.835821 0.640118 0.350539
0.844352 0.649347 0.362881
0.857533 0.663799 0.381930
0.915123 0.731344 0.471980
0.902466 0.715611 0.450878
1.065596 0.891540 0.646588
1.064276 0.890272 0.645386
1.059553 0.886201 0.642050
1.055530 0.886460 0.648243
1.062148 0.917623 0.713680
1.056984 0.960251 0.818146
-0.409187 -0.376632 -0.316637
-0.393755 -0.368742 -0.315972
-0.316424 -0.333057 -0.314115
0.194435 -0.248155 -0.315128
0.439528 0.162855 -0.331191
0.607856 0.352821 -0.347897
0.392673 0.280041 0.050218
0.349678 0.249018 0.038741
0.419947 0.299843 0.058611
0.507309 0.363905 0.090405
0.607893 0.440130 0.141802
0.705639 0.519325 0.212799
0.532102 0.382216 0.099946
0.519654 0.372859 0.093808
0.406218 0.289448 0.047799
0.528812 0.379863 0.099593
0.638403 0.464103 0.161155
0.708288 0.521641 0.215356
0.696731 0.511129 0.202035
0.694278 0.508998 0.199645
0.677146 0.494440 0.183896
0.610068 0.440312 0.132232
0.728736 0.538313 0.229203
0.762640 0.568994 0.264720
0.845388 0.650270 0.363742
0.848633 0.653808 0.368356
0.860911 0.667192 0.385791
0.882618 0.691445 0.417512
0.912989 0.727979 0.466853
0.915925 0.731770 0.472083
1.067929 0.900173 0.664067
1.066751 0.899117 0.663152
1.062815 0.896165 0.661362
1.059314 0.898255 0.671146
1.060505 0.923305 0.729265
1.053506 0.971199 0.847785
-0.293056 -0.330901 -0.325480
-0.268377 -0.321708 -0.324869
-0.058797 -0.279446 -0.323074
0.345629 -0.158791 -0.323909
0.504723 0.247424 -0.339004
0.646767 0.381720 -0.367942
0.466946 0.334119 0.074559
0.420219 0.300003 0.058141
0.477188 0.341686 0.078616
0.549143 0.395203 0.109891
0.636082 0.462313 0.159820
0.732953 0.542845 0.237189
0.579231 0.417908 0.124322
0.559665 0.402946 0.113411
0.423325 0.301867 0.053519
0.535638 0.385048 0.103161
0.633178 0.459950 0.157632
0.738180 0.547462 0.242109
0.723845 0.534286 0.225949
0.714711 0.526401 0.217424
0.671681 0.490113 0.180279
0.576251 0.414742 0.115427
0.683999 0.500601 0.192005
0.784740 0.589659 0.289084
0.861403 0.667918 0.387187
0.858155 0.664220 0.382165
0.844482 0.648908 0.361212
0.827100 0.629968 0.335135
0.858799 0.663446 0.378472
0.919321 0.735482 0.476247
0.995749 0.845987 0.635939
0.996010 0.846264 0.636280
0.997153 0.848054 0.638854
1.000722 0.856729 0.654791
1.003795 0.882023 0.711177
1.000637 1.041447 1.083942
