res/luts/Warm.cube
LUT_3D_SIZE 6
0.000000 0.000000 0.000000
0.333579 0.000000 0.000000
0.620079 0.000000 0.000000
0.844081 0.000000 0.000000
0.996754 0.000000 0.000000
1.000000 0.000000 0.000000
0.000000 0.130614 0.000000
0.333579 0.130614 0.000000
0.620079 0.130614 0.000000
0.844081 0.130614 0.000000
0.996754 0.130614 0.000000
1.000000 0.130614 0.000000
0.000000 0.285405 0.000000
0.333579 0.285405 0.000000
0.620079 0.285405 0.000000
0.844081 0.285405 0.000000
0.996754 0.285405 0.000000
1.000000 0.285405 0.000000
0.000000 0.461707 0.000000
0.333579 0.461707 0.000000
0.620079 0.461707 0.000000
0.844081 0.461707 0.000000
0.996754 0.461707 0.000000
1.000000 0.461707 0.000000
0.000000 0.652000 0.000000
0.333579 0.652000 0.000000
0.620079 0.652000 0.000000
0.844081 0.652000 0.000000
0.996754 0.652000 0.000000
1.000000 0.652000 0.000000
0.000000 0.999018 0.000000
0.333579 0.999018 0.000000
0.620079 0.999018 0.000000
0.844081 0.999018 0.000000
0.996754 0.999018 0.000000
1.000000 0.999018 0.000000
0.000000 0.000000 0.114746
0.333579 0.000000 0.114746
0.620079 0.000000 0.114746
0.844081 0.000000 0.114746
0.996754 0.000000 0.114746
1.000000 0.000000 0.114746
0.000000 0.130614 0.114746
0.333579 0.130614 0.114746
0.620079 0.130614 0.114746
0.844081 0.130614 0.114746
0.996754 0.130614 0.114746
1.000000 0.130614 0.114746
0.000000 0.285405 0.114746
0.333579 0.285405 0.114746
0.620079 0.285405 0.114746
0.844081 0.285405 0.114746
0.996754 0.285405 0.114746
1.000000 0.285405 0.114746
0.000000 0.461707 0.114746
0.333579 0.461707 0.114746
0.620079 0.461707 0.114746
0.844081 0.461707 0.114746
0.996754 0.461707 0.114746
1.000000 0.461707 0.114746
0.000000 0.652000 0.114746
0.333579 0.652000 0.114746
0.620079 0.652000 0.114746
0.844081 0.652000 0.114746
0.996754 0.652000 0.114746
1.000000 0.652000 0.114746
0.000000 0.999018 0.114746
0.333579 0.999018 0.114746
0.620079 0.999018 0.114746
0.844081 0.999018 0.114746
0.996754 0.999018 0.114746
1.000000 0.999018 0.114746
0.000000 0.000000 0.259916
0.333579 0.000000 0.259916
0.620079 0.000000 0.259916
0.844081 0.000000 0.259916
0.996754 0.000000 0.259916
1.000000 0.000000 0.259916
0.000000 0.130614 0.259916
0.333579 0.130614 0.259916
0.620079 0.130614 0.259916
0.844081 0.130614 0.259916
0.996754 0.130614 0.259916
1.000000 0.130614 0.259916
0.000000 0.285405 0.259916
0.333579 0.285405 0.259916
0.620079 0.285405 0.259916
0.844081 0.285405 0.259916
0.996754 0.285405 0.259916
1.000000 0.285405 0.259916
0.000000 0.461707 0.259916
0.333579 0.461707 0.259916
0.620079 0.461707 0.259916
0.844081 0.461707 0.259916
0.996754 0.461707 0.259916
1.000000 0.461707 0.259916
0.000000 0.652000 0.259916
0.333579 0.652000 0.259916
0.620079 0.652000 0.259916
0.844081 0.652000 0.259916
0.996754 0.652000 0.259916
1.000000 0.652000 0.259916
0.000000 0.999018 0.259916
0.333579 0.999018 0.259916
0.620079 0.999018 0.259916
0.844081 0.999018 0.259916
0.996754 0.999018 0.259916
1.000000 0.999018 0.259916
0.000000 0.000000 0.430891
0.333579 0.000000 0.430891
0.620079 0.000000 0.430891
0.844081 0.000000 0.430891
0.996754 0.000000 0.430891
1.000000 0.000000 0.430891
0.000000 0.130614 0.430891
0.333579 0.130614 0.430891
0.620079 0.130614 0.430891
0.844081 0.130614 0.430891
0.996754 0.130614 0.430891
1.000000 0.130614 0.430891
0.000000 0.285405 0.430891
0.333579 0.285405 0.430891
0.620079 0.285405 0.430891
0.844081 0.285405 0.430891
0.996754 0.285405 0.430891
1.000000 0.285405 0.430891
0.000000 0.461707 0.430891
0.333579 0.461707 0.430891
0.620079 0.461707 0.430891
0.844081 0.461707 0.430891
0.996754 0.461707 0.430891
1.000000 0.461707 0.430891
0.000000 0.652000 0.430891
0.333579 0.652000 0.430891
0.620079 0.652000 0.430891
0.844081 0.652000 0.430891
0.996754 0.652000 0.430891
1.000000 0.652000 0.430891
0.000000 0.999018 0.430891
0.333579 0.999018 0.430891
0.620079 0.999018 0.430891
0.844081 0.999018 0.430891
0.996754 0.999018 0.430891
1.000000 0.999018 0.430891
0.000000 0.000000 0.623079
0.333579 0.000000 0.623079
0.620079 0.000000 0.623079
0.844081 0.000000 0.623079
0.996754 0.000000 0.623079
1.000000 0.000000 0.623079
0.000000 0.130614 0.623079
0.333579 0.130614 0.623079
0.620079 0.130614 0.623079
0.844081 0.130614 0.623079
0.996754 0.130614 0.623079
1.000000 0.130614 0.623079
0.000000 0.285405 0.623079
0.333579 0.285405 0.623079
0.620079 0.285405 0.623079
0.844081 0.285405 0.623079
0.996754 0.285405 0.623079
1.000000 0.285405 0.623079
0.000000 0.461707 0.623079
0.333579 0.461707 0.623079
0.620079 0.461707 0.623079
0.844081 0.461707 0.623079
0.996754 0.461707 0.623079
1.000000 0.461707 0.623079
0.000000 0.652000 0.623079
0.333579 0.652000 0.623079
0.620079 0.652000 0.623079
0.844081 0.652000 0.623079
0.996754 0.652000 0.623079
1.000000 0.652000 0.623079
0.000000 0.999018 0.623079
0.333579 0.999018 0.623079
0.620079 0.999018 0.623079
0.844081 0.999018 0.623079
0.996754 0.999018 0.623079
1.000000 0.999018 0.623079
0.000000 0.000000 0.998916
0.333579 0.000000 0.998916
0.620079 0.000000 0.998916
0.844081 0.000000 0.998916
0.996754 0.000000 0.998916
1.000000 0.000000 0.998916
0.000000 0.130614 0.998916
0.333579 0.130614 0.998916
0.620079 0.130614 0.998916
0.844081 0.130614 0.998916
0.996754 0.130614 0.998916
1.000000 0.130614 0.998916
0.000000 0.285405 0.998916
0.333579 0.285405 0.998916
0.620079 0.285405 0.998916
0.844081 0.285405 0.998916
0.996754 0.285405 0.998916
1.000000 0.285405 0.998916
0.000000 0.461707 0.998916
0.333579 0.461707 0.998916
0.620079 0.461707 0.998916
0.844081 0.461707 0.998916
0.996754 0.461707 0.998916
1.000000 0.461707 0.998916
0.000000 0.652000 0.998916
0.333579 0.652000 0.998916
0.620079 0.652000 0.998916
0.844081 0.652000 0.998916
0.996754 0.652000 0.998916
1.000000 0.652000 0.998916
0.000000 0.999018 0.998916
0.333579 0.999018 0.998916
0.620079 0.999018 0.998916
0.844081 0.999018 0.998916
0.996754 0.999018 0.998916
1.000000 0.999018 0.998916
