res/luts/Warm.cube
LUT_3D_SIZE 16
0.000000 0.000000 0.000000
0.114179 0.000000 0.000000
0.225383 0.000000 0.000000
0.333579 0.000000 0.000000
0.437277 0.000000 0.000000
0.532775 0.000000 0.000000
0.620079 0.000000 0.000000
0.700006 0.000000 0.000000
0.773839 0.000000 0.000000
0.844081 0.000000 0.000000
0.913696 0.000000 0.000000
0.978401 0.000000 0.000000
0.996754 0.000000 0.000000
0.999579 0.000000 0.000000
0.999961 0.000000 0.000000
1.000000 0.000000 0.000000
0.000000 0.040313 0.000000
0.114179 0.040313 0.000000
0.225383 0.040313 0.000000
0.333579 0.040313 0.000000
0.437277 0.040313 0.000000
0.532775 0.040313 0.000000
0.620079 0.040313 0.000000
0.700006 0.040313 0.000000
0.773839 0.040313 0.000000
0.844081 0.040313 0.000000
0.913696 0.040313 0.000000
0.978401 0.040313 0.000000
0.996754 0.040313 0.000000
0.999579 0.040313 0.000000
0.999961 0.040313 0.000000
1.000000 0.040313 0.000000
0.000000 0.083937 0.000000
0.114179 0.083937 0.000000
0.225383 0.083937 0.000000
0.333579 0.083937 0.000000
0.437277 0.083937 0.000000
0.532775 0.083937 0.000000
0.620079 0.083937 0.000000
0.700006 0.083937 0.000000
0.773839 0.083937 0.000000
0.844081 0.083937 0.000000
0.913696 0.083937 0.000000
0.978401 0.083937 0.000000
0.996754 0.083937 0.000000
0.999579 0.083937 0.000000
0.999961 0.083937 0.000000
1.000000 0.083937 0.000000
0.000000 0.130614 0.000000
0.114179 0.130614 0.000000
0.225383 0.130614 0.000000
0.333579 0.130614 0.000000
0.437277 0.130614 0.000000
0.532775 0.130614 0.000000
0.620079 0.130614 0.000000
0.700006 0.130614 0.000000
0.773839 0.130614 0.000000
0.844081 0.130614 0.000000
0.913696 0.130614 0.000000
0.978401 0.130614 0.000000
0.996754 0.130614 0.000000
0.999579 0.130614 0.000000
0.999961 0.130614 0.000000
1.000000 0.130614 0.000000
0.000000 0.179979 0.000000
0.114179 0.179979 0.000000
0.225383 0.179979 0.000000
0.333579 0.179979 0.000000
0.437277 0.179979 0.000000
0.532775 0.179979 0.000000
0.620079 0.179979 0.000000
0.700006 0.179979 0.000000
0.773839 0.179979 0.000000
0.844081 0.179979 0.000000
0.913696 0.179979 0.000000
0.978401 0.179979 0.000000
0.996754 0.179979 0.000000
0.999579 0.179979 0.000000
0.999961 0.179979 0.000000
1.000000 0.179979 0.000000
0.000000 0.231598 0.000000
0.114179 0.231598 0.000000
0.225383 0.231598 0.000000
0.333579 0.231598 0.000000
0.437277 0.231598 0.000000
0.532775 0.231598 0.000000
0.620079 0.231598 0.000000
0.700006 0.231598 0.000000
0.773839 0.231598 0.000000
0.844081 0.231598 0.000000
0.913696 0.231598 0.000000
0.978401 0.231598 0.000000
0.996754 0.231598 0.000000
0.999579 0.231598 0.000000
0.999961 0.231598 0.000000
1.000000 0.231598 0.000000
0.000000 0.285405 0.000000
0.114179 0.285405 0.000000
0.225383 0.285405 0.000000
0.333579 0.285405 0.000000
0.437277 0.285405 0.000000
0.532775 0.285405 0.000000
0.620079 0.285405 0.000000
0.700006 0.285405 0.000000
0.773839 0.285405 0.000000
0.844081 0.285405 0.000000
0.913696 0.285405 0.000000
0.978401 0.285405 0.000000
0.996754 0.285405 0.000000
0.999579 0.285405 0.000000
0.999961 0.285405 0.000000
1.000000 0.285405 0.000000
0.000000 0.341707 0.000000
0.114179 0.341707 0.000000
0.225383 0.341707 0.000000
0.333579 0.341707 0.000000
0.437277 0.341707 0.000000
0.532775 0.341707 0.000000
0.620079 0.341707 0.000000
0.700006 0.341707 0.000000
0.773839 0.341707 0.000000
0.844081 0.341707 0.000000
0.913696 0.341707 0.000000
0.978401 0.341707 0.000000
0.996754 0.341707 0.000000
0.999579 0.341707 0.000000
0.999961 0.341707 0.000000
1.000000 0.341707 0.000000
0.000000 0.400425 0.000000
0.114179 0.400425 0.000000
0.225383 0.400425 0.000000
0.333579 0.400425 0.000000
0.437277 0.400425 0.000000
0.532775 0.400425 0.000000
0.620079 0.400425 0.000000
0.700006 0.400425 0.000000
0.773839 0.400425 0.000000
0.844081 0.400425 0.000000
0.913696 0.400425 0.000000
0.978401 0.400425 0.000000
0.996754 0.400425 0.000000
0.999579 0.400425 0.000000
0.999961 0.400425 0.000000
1.000000 0.400425 0.000000
0.000000 0.461707 0.000000
0.114179 0.461707 0.000000
0.225383 0.461707 0.000000
0.333579 0.461707 0.000000
0.437277 0.461707 0.000000
0.532775 0.461707 0.000000
0.620079 0.461707 0.000000
0.700006 0.461707 0.000000
0.773839 0.461707 0.000000
0.844081 0.461707 0.000000
0.913696 0.461707 0.000000
0.978401 0.461707 0.000000
0.996754 0.461707 0.000000
0.999579 0.461707 0.000000
0.999961 0.461707 0.000000
1.000000 0.461707 0.000000
0.000000 0.525496 0.000000
0.114179 0.525496 0.000000
0.225383 0.525496 0.000000
0.333579 0.525496 0.000000
0.437277 0.525496 0.000000
0.532775 0.525496 0.000000
0.620079 0.525496 0.000000
0.700006 0.525496 0.000000
0.773839 0.525496 0.000000
0.844081 0.525496 0.000000
0.913696 0.525496 0.000000
0.978401 0.525496 0.000000
0.996754 0.525496 0.000000
0.999579 0.525496 0.000000
0.999961 0.525496 0.000000
1.000000 0.525496 0.000000
0.000000 0.590652 0.000000
0.114179 0.590652 0.000000
0.225383 0.590652 0.000000
0.333579 0.590652 0.000000
0.437277 0.590652 0.000000
0.532775 0.590652 0.000000
0.620079 0.590652 0.000000
0.700006 0.590652 0.000000
0.773839 0.590652 0.000000
0.844081 0.590652 0.000000
0.913696 0.590652 0.000000
0.978401 0.590652 0.000000
0.996754 0.590652 0.000000
0.999579 0.590652 0.000000
0.999961 0.590652 0.000000
1.000000 0.590652 0.000000
0.000000 0.652000 0.000000
0.114179 0.652000 0.000000
0.225383 0.652000 0.000000
0.333579 0.652000 0.000000
0.437277 0.652000 0.000000
0.532775 0.652000 0.000000
0.620079 0.652000 0.000000
0.700006 0.652000 0.000000
0.773839 0.652000 0.000000
0.844081 0.652000 0.000000
0.913696 0.652000 0.000000
0.978401 0.652000 0.000000
0.996754 0.652000 0.000000
0.999579 0.652000 0.000000
0.999961 0.652000 0.000000
1.000000 0.652000 0.000000
0.000000 0.713656 0.000000
0.114179 0.713656 0.000000
0.225383 0.713656 0.000000
0.333579 0.713656 0.000000
0.437277 0.713656 0.000000
0.532775 0.713656 0.000000
0.620079 0.713656 0.000000
0.700006 0.713656 0.000000
0.773839 0.713656 0.000000
0.844081 0.713656 0.000000
0.913696 0.713656 0.000000
0.978401 0.713656 0.000000
0.996754 0.713656 0.000000
0.999579 0.713656 0.000000
0.999961 0.713656 0.000000
1.000000 0.713656 0.000000
0.000000 0.776634 0.000000
0.114179 0.776634 0.000000
0.225383 0.776634 0.000000
0.333579 0.776634 0.000000
0.437277 0.776634 0.000000
0.532775 0.776634 0.000000
0.620079 0.776634 0.000000
0.700006 0.776634 0.000000
0.773839 0.776634 0.000000
0.844081 0.776634 0.000000
0.913696 0.776634 0.000000
0.978401 0.776634 0.000000
0.996754 0.776634 0.000000
0.999579 0.776634 0.000000
0.999961 0.776634 0.000000
1.000000 0.776634 0.000000
0.000000 0.999018 0.000000
0.114179 0.999018 0.000000
0.225383 0.999018 0.000000
0.333579 0.999018 0.000000
0.437277 0.999018 0.000000
0.532775 0.999018 0.000000
0.620079 0.999018 0.000000
0.700006 0.999018 0.000000
0.773839 0.999018 0.000000
0.844081 0.999018 0.000000
0.913696 0.999018 0.000000
0.978401 0.999018 0.000000
0.996754 0.999018 0.000000
0.999579 0.999018 0.000000
0.999961 0.999018 0.000000
1.000000 0.999018 0.000000
0.000000 0.000000 0.034264
0.114179 0.000000 0.034264
0.225383 0.000000 0.034264
0.333579 0.000000 0.034264
0.437277 0.000000 0.034264
0.532775 0.000000 0.034264
0.620079 0.000000 0.034264
0.700006 0.000000 0.034264
0.773839 0.000000 0.034264
0.844081 0.000000 0.034264
0.913696 0.000000 0.034264
0.978401 0.000000 0.034264
0.996754 0.000000 0.034264
0.999579 0.000000 0.034264
0.999961 0.000000 0.034264
1.000000 0.000000 0.034264
0.000000 0.040313 0.034264
0.114179 0.040313 0.034264
0.225383 0.040313 0.034264
0.333579 0.040313 0.034264
0.437277 0.040313 0.034264
0.532775 0.040313 0.034264
0.620079 0.040313 0.034264
0.700006 0.040313 0.034264
0.773839 0.040313 0.034264
0.844081 0.040313 0.034264
0.913696 0.040313 0.034264
0.978401 0.040313 0.034264
0.996754 0.040313 0.034264
0.999579 0.040313 0.034264
0.999961 0.040313 0.034264
1.000000 0.040313 0.034264
0.000000 0.083937 0.034264
0.114179 0.083937 0.034264
0.225383 0.083937 0.034264
0.333579 0.083937 0.034264
0.437277 0.083937 0.034264
0.532775 0.083937 0.034264
0.620079 0.083937 0.034264
0.700006 0.083937 0.034264
0.773839 0.083937 0.034264
0.844081 0.083937 0.034264
0.913696 0.083937 0.034264
0.978401 0.083937 0.034264
0.996754 0.083937 0.034264
0.999579 0.083937 0.034264
0.999961 0.083937 0.034264
1.000000 0.083937 0.034264
0.000000 0.130614 0.034264
0.114179 0.130614 0.034264
0.225383 0.130614 0.034264
0.333579 0.130614 0.034264
0.437277 0.130614 0.034264
0.532775 0.130614 0.034264
0.620079 0.130614 0.034264
0.700006 0.130614 0.034264
0.773839 0.130614 0.034264
0.844081 0.130614 0.034264
0.913696 0.130614 0.034264
0.978401 0.130614 0.034264
0.996754 0.130614 0.034264
0.999579 0.130614 0.034264
0.999961 0.130614 0.034264
1.000000 0.130614 0.034264
0.000000 0.179979 0.034264
0.114179 0.179979 0.034264
0.225383 0.179979 0.034264
0.333579 0.179979 0.034264
0.437277 0.179979 0.034264
0.532775 0.179979 0.034264
0.620079 0.179979 0.034264
0.700006 0.179979 0.034264
0.773839 0.179979 0.034264
0.844081 0.179979 0.034264
0.913696 0.179979 0.034264
0.978401 0.179979 0.034264
0.996754 0.179979 0.034264
0.999579 0.179979 0.034264
0.999961 0.179979 0.034264
1.000000 0.179979 0.034264
0.000000 0.231598 0.034264
0.114179 0.231598 0.034264
0.225383 0.231598 0.034264
0.333579 0.231598 0.034264
0.437277 0.231598 0.034264
0.532775 0.231598 0.034264
0.620079 0.231598 0.034264
0.700006 0.231598 0.034264
0.773839 0.231598 0.034264
0.844081 0.231598 0.034264
0.913696 0.231598 0.034264
0.978401 0.231598 0.034264
0.996754 0.231598 0.034264
0.999579 0.231598 0.034264
0.999961 0.231598 0.034264
1.000000 0.231598 0.034264
0.000000 0.285405 0.034264
0.114179 0.285405 0.034264
0.225383 0.285405 0.034264
0.333579 0.285405 0.034264
0.437277 0.285405 0.034264
0.532775 0.285405 0.034264
0.620079 0.285405 0.034264
0.700006 0.285405 0.034264
0.773839 0.285405 0.034264
0.844081 0.285405 0.034264
0.913696 0.285405 0.034264
0.978401 0.285405 0.034264
0.996754 0.285405 0.034264
0.999579 0.285405 0.034264
0.999961 0.285405 0.034264
1.000000 0.285405 0.034264
0.000000 0.341707 0.034264
0.114179 0.341707 0.034264
0.225383 0.341707 0.034264
0.333579 0.341707 0.034264
0.437277 0.341707 0.034264
0.532775 0.341707 0.034264
0.620079 0.341707 0.034264
0.700006 0.341707 0.034264
0.773839 0.341707 0.034264
0.844081 0.341707 0.034264
0.913696 0.341707 0.034264
0.978401 0.341707 0.034264
0.996754 0.341707 0.034264
0.999579 0.341707 0.034264
0.999961 0.341707 0.034264
1.000000 0.341707 0.034264
0.000000 0.400425 0.034264
0.114179 0.400425 0.034264
0.225383 0.400425 0.034264
0.333579 0.400425 0.034264
0.437277 0.400425 0.034264
0.532775 0.400425 0.034264
0.620079 0.400425 0.034264
0.700006 0.400425 0.034264
0.773839 0.400425 0.034264
0.844081 0.400425 0.034264
0.913696 0.400425 0.034264
0.978401 0.400425 0.034264
0.996754 0.400425 0.034264
0.999579 0.400425 0.034264
0.999961 0.400425 0.034264
1.000000 0.400425 0.034264
0.000000 0.461707 0.034264
0.114179 0.461707 0.034264
0.225383 0.461707 0.034264
0.333579 0.461707 0.034264
0.437277 0.461707 0.034264
0.532775 0.461707 0.034264
0.620079 0.461707 0.034264
0.700006 0.461707 0.034264
0.773839 0.461707 0.034264
0.844081 0.461707 0.034264
0.913696 0.461707 0.034264
0.978401 0.461707 0.034264
0.996754 0.461707 0.034264
0.999579 0.461707 0.034264
0.999961 0.461707 0.034264
1.000000 0.461707 0.034264
0.000000 0.525496 0.034264
0.114179 0.525496 0.034264
0.225383 0.525496 0.034264
0.333579 0.525496 0.034264
0.437277 0.525496 0.034264
0.532775 0.525496 0.034264
0.620079 0.525496 0.034264
0.700006 0.525496 0.034264
0.773839 0.525496 0.034264
0.844081 0.525496 0.034264
0.913696 0.525496 0.034264
0.978401 0.525496 0.034264
0.996754 0.525496 0.034264
0.999579 0.525496 0.034264
0.999961 0.525496 0.034264
1.000000 0.525496 0.034264
0.000000 0.590652 0.034264
0.114179 0.590652 0.034264
0.225383 0.590652 0.034264
0.333579 0.590652 0.034264
0.437277 0.590652 0.034264
0.532775 0.590652 0.034264
0.620079 0.590652 0.034264
0.700006 0.590652 0.034264
0.773839 0.590652 0.034264
0.844081 0.590652 0.034264
0.913696 0.590652 0.034264
0.978401 0.590652 0.034264
0.996754 0.590652 0.034264
0.999579 0.590652 0.034264
0.999961 0.590652 0.034264
1.000000 0.590652 0.034264
0.000000 0.652000 0.034264
0.114179 0.652000 0.034264
0.225383 0.652000 0.034264
0.333579 0.652000 0.034264
0.437277 0.652000 0.034264
0.532775 0.652000 0.034264
0.620079 0.652000 0.034264
0.700006 0.652000 0.034264
0.773839 0.652000 0.034264
0.844081 0.652000 0.034264
0.913696 0.652000 0.034264
0.978401 0.652000 0.034264
0.996754 0.652000 0.034264
0.999579 0.652000 0.034264
0.999961 0.652000 0.034264
1.000000 0.652000 0.034264
0.000000 0.713656 0.034264
0.114179 0.713656 0.034264
0.225383 0.713656 0.034264
0.333579 0.713656 0.034264
0.437277 0.713656 0.034264
0.532775 0.713656 0.034264
0.620079 0.713656 0.034264
0.700006 0.713656 0.034264
0.773839 0.713656 0.034264
0.844081 0.713656 0.034264
0.913696 0.713656 0.034264
0.978401 0.713656 0.034264
0.996754 0.713656 0.034264
0.999579 0.713656 0.034264
0.999961 0.713656 0.034264
1.000000 0.713656 0.034264
0.000000 0.776634 0.034264
0.114179 0.776634 0.034264
0.225383 0.776634 0.034264
0.333579 0.776634 0.034264
0.437277 0.776634 0.034264
0.532775 0.776634 0.034264
0.620079 0.776634 0.034264
0.700006 0.776634 0.034264
0.773839 0.776634 0.034264
0.844081 0.776634 0.034264
0.913696 0.776634 0.034264
0.978401 0.776634 0.034264
0.996754 0.776634 0.034264
0.999579 0.776634 0.034264
0.999961 0.776634 0.034264
1.000000 0.776634 0.034264
0.000000 0.999018 0.034264
0.114179 0.999018 0.034264
0.225383 0.999018 0.034264
0.333579 0.999018 0.034264
0.437277 0.999018 0.034264
0.532775 0.999018 0.034264
0.620079 0.999018 0.034264
0.700006 0.999018 0.034264
0.773839 0.999018 0.034264
0.844081 0.999018 0.034264
0.913696 0.999018 0.034264
0.978401 0.999018 0.034264
0.996754 0.999018 0.034264
0.999579 0.999018 0.034264
0.999961 0.999018 0.034264
1.000000 0.999018 0.034264
0.000000 0.000000 0.072663
0.114179 0.000000 0.072663
0.225383 0.000000 0.072663
0.333579 0.000000 0.072663
0.437277 0.000000 0.072663
0.532775 0.000000 0.072663
0.620079 0.000000 0.072663
0.700006 0.000000 0.072663
0.773839 0.000000 0.072663
0.844081 0.000000 0.072663
0.913696 0.000000 0.072663
0.978401 0.000000 0.072663
0.996754 0.000000 0.072663
0.999579 0.000000 0.072663
0.999961 0.000000 0.072663
1.000000 0.000000 0.072663
0.000000 0.040313 0.072663
0.114179 0.040313 0.072663
0.225383 0.040313 0.072663
0.333579 0.040313 0.072663
0.437277 0.040313 0.072663
0.532775 0.040313 0.072663
0.620079 0.040313 0.072663
0.700006 0.040313 0.072663
0.773839 0.040313 0.072663
0.844081 0.040313 0.072663
0.913696 0.040313 0.072663
0.978401 0.040313 0.072663
0.996754 0.040313 0.072663
0.999579 0.040313 0.072663
0.999961 0.040313 0.072663
1.000000 0.040313 0.072663
0.000000 0.083937 0.072663
0.114179 0.083937 0.072663
0.225383 0.083937 0.072663
0.333579 0.083937 0.072663
0.437277 0.083937 0.072663
0.532775 0.083937 0.072663
0.620079 0.083937 0.072663
0.700006 0.083937 0.072663
0.773839 0.083937 0.072663
0.844081 0.083937 0.072663
0.913696 0.083937 0.072663
0.978401 0.083937 0.072663
0.996754 0.083937 0.072663
0.999579 0.083937 0.072663
0.999961 0.083937 0.072663
1.000000 0.083937 0.072663
0.000000 0.130614 0.072663
0.114179 0.130614 0.072663
0.225383 0.130614 0.072663
0.333579 0.130614 0.072663
0.437277 0.130614 0.072663
0.532775 0.130614 0.072663
0.620079 0.130614 0.072663
0.700006 0.130614 0.072663
0.773839 0.130614 0.072663
0.844081 0.130614 0.072663
0.913696 0.130614 0.072663
0.978401 0.130614 0.072663
0.996754 0.130614 0.072663
0.999579 0.130614 0.072663
0.999961 0.130614 0.072663
1.000000 0.130614 0.072663
0.000000 0.179979 0.072663
0.114179 0.179979 0.072663
0.225383 0.179979 0.072663
0.333579 0.179979 0.072663
0.437277 0.179979 0.072663
0.532775 0.179979 0.072663
0.620079 0.179979 0.072663
0.700006 0.179979 0.072663
0.773839 0.179979 0.072663
0.844081 0.179979 0.072663
0.913696 0.179979 0.072663
0.978401 0.179979 0.072663
0.996754 0.179979 0.072663
0.999579 0.179979 0.072663
0.999961 0.179979 0.072663
1.000000 0.179979 0.072663
0.000000 0.231598 0.072663
0.114179 0.231598 0.072663
0.225383 0.231598 0.072663
0.333579 0.231598 0.072663
0.437277 0.231598 0.072663
0.532775 0.231598 0.072663
0.620079 0.231598 0.072663
0.700006 0.231598 0.072663
0.773839 0.231598 0.072663
0.844081 0.231598 0.072663
0.913696 0.231598 0.072663
0.978401 0.231598 0.072663
0.996754 0.231598 0.072663
0.999579 0.231598 0.072663
0.999961 0.231598 0.072663
1.000000 0.231598 0.072663
0.000000 0.285405 0.072663
0.114179 0.285405 0.072663
0.225383 0.285405 0.072663
0.333579 0.285405 0.072663
0.437277 0.285405 0.072663
0.532775 0.285405 0.072663
0.620079 0.285405 0.072663
0.700006 0.285405 0.072663
0.773839 0.285405 0.072663
0.844081 0.285405 0.072663
0.913696 0.285405 0.072663
0.978401 0.285405 0.072663
0.996754 0.285405 0.072663
0.999579 0.285405 0.072663
0.999961 0.285405 0.072663
1.000000 0.285405 0.072663
0.000000 0.341707 0.072663
0.114179 0.341707 0.072663
0.225383 0.341707 0.072663
0.333579 0.341707 0.072663
0.437277 0.341707 0.072663
0.532775 0.341707 0.072663
0.620079 0.341707 0.072663
0.700006 0.341707 0.072663
0.773839 0.341707 0.072663
0.844081 0.341707 0.072663
0.913696 0.341707 0.072663
0.978401 0.341707 0.072663
0.996754 0.341707 0.072663
0.999579 0.341707 0.072663
0.999961 0.341707 0.072663
1.000000 0.341707 0.072663
0.000000 0.400425 0.072663
0.114179 0.400425 0.072663
0.225383 0.400425 0.072663
0.333579 0.400425 0.072663
0.437277 0.400425 0.072663
0.532775 0.400425 0.072663
0.620079 0.400425 0.072663
0.700006 0.400425 0.072663
0.773839 0.400425 0.072663
0.844081 0.400425 0.072663
0.913696 0.400425 0.072663
0.978401 0.400425 0.072663
0.996754 0.400425 0.072663
0.999579 0.400425 0.072663
0.999961 0.400425 0.072663
1.000000 0.400425 0.072663
0.000000 0.461707 0.072663
0.114179 0.461707 0.072663
0.225383 0.461707 0.072663
0.333579 0.461707 0.072663
0.437277 0.461707 0.072663
0.532775 0.461707 0.072663
0.620079 0.461707 0.072663
0.700006 0.461707 0.072663
0.773839 0.461707 0.072663
0.844081 0.461707 0.072663
0.913696 0.461707 0.072663
0.978401 0.461707 0.072663
0.996754 0.461707 0.072663
0.999579 0.461707 0.072663
0.999961 0.461707 0.072663
1.000000 0.461707 0.072663
0.000000 0.525496 0.072663
0.114179 0.525496 0.072663
0.225383 0.525496 0.072663
0.333579 0.525496 0.072663
0.437277 0.525496 0.072663
0.532775 0.525496 0.072663
0.620079 0.525496 0.072663
0.700006 0.525496 0.072663
0.773839 0.525496 0.072663
0.844081 0.525496 0.072663
0.913696 0.525496 0.072663
0.978401 0.525496 0.072663
0.996754 0.525496 0.072663
0.999579 0.525496 0.072663
0.999961 0.525496 0.072663
1.000000 0.525496 0.072663
0.000000 0.590652 0.072663
0.114179 0.590652 0.072663
0.225383 0.590652 0.072663
0.333579 0.590652 0.072663
0.437277 0.590652 0.072663
0.532775 0.590652 0.072663
0.620079 0.590652 0.072663
0.700006 0.590652 0.072663
0.773839 0.590652 0.072663
0.844081 0.590652 0.072663
0.913696 0.590652 0.072663
0.978401 0.590652 0.072663
0.996754 0.590652 0.072663
0.999579 0.590652 0.072663
0.999961 0.590652 0.072663
1.000000 0.590652 0.072663
0.000000 0.652000 0.072663
0.114179 0.652000 0.072663
0.225383 0.652000 0.072663
0.333579 0.652000 0.072663
0.437277 0.652000 0.072663
0.532775 0.652000 0.072663
0.620079 0.652000 0.072663
0.700006 0.652000 0.072663
0.773839 0.652000 0.072663
0.844081 0.652000 0.072663
0.913696 0.652000 0.072663
0.978401 0.652000 0.072663
0.996754 0.652000 0.072663
0.999579 0.652000 0.072663
0.999961 0.652000 0.072663
1.000000 0.652000 0.072663
0.000000 0.713656 0.072663
0.114179 0.713656 0.072663
0.225383 0.713656 0.072663
0.333579 0.713656 0.072663
0.437277 0.713656 0.072663
0.532775 0.713656 0.072663
0.620079 0.713656 0.072663
0.700006 0.713656 0.072663
0.773839 0.713656 0.072663
0.844081 0.713656 0.072663
0.913696 0.713656 0.072663
0.978401 0.713656 0.072663
0.996754 0.713656 0.072663
0.999579 0.713656 0.072663
0.999961 0.713656 0.072663
1.000000 0.713656 0.072663
0.000000 0.776634 0.072663
0.114179 0.776634 0.072663
0.225383 0.776634 0.072663
0.333579 0.776634 0.072663
0.437277 0.776634 0.072663
0.532775 0.776634 0.072663
0.620079 0.776634 0.072663
0.700006 0.776634 0.072663
0.773839 0.776634 0.072663
0.844081 0.776634 0.072663
0.913696 0.776634 0.072663
0.978401 0.776634 0.072663
0.996754 0.776634 0.072663
0.999579 0.776634 0.072663
0.999961 0.776634 0.072663
1.000000 0.776634 0.072663
0.000000 0.999018 0.072663
0.114179 0.999018 0.072663
0.225383 0.999018 0.072663
0.333579 0.999018 0.072663
0.437277 0.999018 0.072663
0.532775 0.999018 0.072663
0.620079 0.999018 0.072663
0.700006 0.999018 0.072663
0.773839 0.999018 0.072663
0.844081 0.999018 0.072663
0.913696 0.999018 0.072663
0.978401 0.999018 0.072663
0.996754 0.999018 0.072663
0.999579 0.999018 0.072663
0.999961 0.999018 0.072663
1.000000 0.999018 0.072663
0.000000 0.000000 0.114746
0.114179 0.000000 0.114746
0.225383 0.000000 0.114746
0.333579 0.000000 0.114746
0.437277 0.000000 0.114746
0.532775 0.000000 0.114746
0.620079 0.000000 0.114746
0.700006 0.000000 0.114746
0.773839 0.000000 0.114746
0.844081 0.000000 0.114746
0.913696 0.000000 0.114746
0.978401 0.000000 0.114746
0.996754 0.000000 0.114746
0.999579 0.000000 0.114746
0.999961 0.000000 0.114746
1.000000 0.000000 0.114746
0.000000 0.040313 0.114746
0.114179 0.040313 0.114746
0.225383 0.040313 0.114746
0.333579 0.040313 0.114746
0.437277 0.040313 0.114746
0.532775 0.040313 0.114746
0.620079 0.040313 0.114746
0.700006 0.040313 0.114746
0.773839 0.040313 0.114746
0.844081 0.040313 0.114746
0.913696 0.040313 0.114746
0.978401 0.040313 0.114746
0.996754 0.040313 0.114746
0.999579 0.040313 0.114746
0.999961 0.040313 0.114746
1.000000 0.040313 0.114746
0.000000 0.083937 0.114746
0.114179 0.083937 0.114746
0.225383 0.083937 0.114746
0.333579 0.083937 0.114746
0.437277 0.083937 0.114746
0.532775 0.083937 0.114746
0.620079 0.083937 0.114746
0.700006 0.083937 0.114746
0.773839 0.083937 0.114746
0.844081 0.083937 0.114746
0.913696 0.083937 0.114746
0.978401 0.083937 0.114746
0.996754 0.083937 0.114746
0.999579 0.083937 0.114746
0.999961 0.083937 0.114746
1.000000 0.083937 0.114746
0.000000 0.130614 0.114746
0.114179 0.130614 0.114746
0.225383 0.130614 0.114746
0.333579 0.130614 0.114746
0.437277 0.130614 0.114746
0.532775 0.130614 0.114746
0.620079 0.130614 0.114746
0.700006 0.130614 0.114746
0.773839 0.130614 0.114746
0.844081 0.130614 0.114746
0.913696 0.130614 0.114746
0.978401 0.130614 0.114746
0.996754 0.130614 0.114746
0.999579 0.130614 0.114746
0.999961 0.130614 0.114746
1.000000 0.130614 0.114746
0.000000 0.179979 0.114746
0.114179 0.179979 0.114746
0.225383 0.179979 0.114746
0.333579 0.179979 0.114746
0.437277 0.179979 0.114746
0.532775 0.179979 0.114746
0.620079 0.179979 0.114746
0.700006 0.179979 0.114746
0.773839 0.179979 0.114746
0.844081 0.179979 0.114746
0.913696 0.179979 0.114746
0.978401 0.179979 0.114746
0.996754 0.179979 0.114746
0.999579 0.179979 0.114746
0.999961 0.179979 0.114746
1.000000 0.179979 0.114746
0.000000 0.231598 0.114746
0.114179 0.231598 0.114746
0.225383 0.231598 0.114746
0.333579 0.231598 0.114746
0.437277 0.231598 0.114746
0.532775 0.231598 0.114746
0.620079 0.231598 0.114746
0.700006 0.231598 0.114746
0.773839 0.231598 0.114746
0.844081 0.231598 0.114746
0.913696 0.231598 0.114746
0.978401 0.231598 0.114746
0.996754 0.231598 0.114746
0.999579 0.231598 0.114746
0.999961 0.231598 0.114746
1.000000 0.231598 0.114746
0.000000 0.285405 0.114746
0.114179 0.285405 0.114746
0.225383 0.285405 0.114746
0.333579 0.285405 0.114746
0.437277 0.285405 0.114746
0.532775 0.285405 0.114746
0.620079 0.285405 0.114746
0.700006 0.285405 0.114746
0.773839 0.285405 0.114746
0.844081 0.285405 0.114746
0.913696 0.285405 0.114746
0.978401 0.285405 0.114746
0.996754 0.285405 0.114746
0.999579 0.285405 0.114746
0.999961 0.285405 0.114746
1.000000 0.285405 0.114746
0.000000 0.341707 0.114746
0.114179 0.341707 0.114746
0.225383 0.341707 0.114746
0.333579 0.341707 0.114746
0.437277 0.341707 0.114746
0.532775 0.341707 0.114746
0.620079 0.341707 0.114746
0.700006 0.341707 0.114746
